;FLAVOR:Marlin
;TIME:251
;Filament used: 0.68717m
;Layer height: 0.3
;MINX:198.851
;MINY:198.851
;MINZ:0.2
;MAXX:231.149
;MAXY:231.149
;MAXZ:7.4
;Generated with Cura_SteamEngine 4.8.0
M82 ;absolute extrusion mode
;ELEGOO NEPTUNE 4 MAX
M220 S100 ;Set the feed speed to 100%
M221 S100 ;Set the flow rate to 100%
M104 S140
M190 S60
G90
G28 ;home
G1 Z10 F300
G1 X165 Y0.5 F6000
G1 Z0 F300
M109 S210
G92 E0 ;Reset Extruder
G1 X165 Y0.5 Z0.4 F300 ;Move to start position
G1 X265 E30 F400 ;Draw the first line
G1 Z0.6 F120.0 ;Move to side a little
G1 X260 F3000
G92 E0 ;Reset Extruder
G92 E0
G92 E0
G1 F2700 E-0.8
;LAYER_COUNT:25
;LAYER:0
M107
M204 S500
G1 F600 Z0.6
G0 F15000 X203.536 Y226.371 Z0.6
;TYPE:SKIRT
G1 F600 Z0.2
G1 F2700 E0
G1 X203.433 Y226.267 E0.006
G1 X203.056 Y225.867 E0.02852
G1 X202.949 Y225.748 E0.03508
G1 X202.59 Y225.331 E0.05762
G1 X202.497 Y225.218 E0.06362
G1 X202.156 Y224.787 E0.08614
G1 X202.058 Y224.658 E0.09277
G1 X201.737 Y224.212 E0.11529
G1 X201.651 Y224.087 E0.12151
G1 X201.349 Y223.627 E0.14405
G1 X201.263 Y223.489 E0.15072
G1 X200.982 Y223.015 E0.17329
G1 X200.914 Y222.895 E0.17894
G1 X200.653 Y222.413 E0.2014
G1 X200.578 Y222.266 E0.20817
G1 X200.338 Y221.769 E0.23078
G1 X200.272 Y221.624 E0.23731
G1 X200.056 Y221.12 E0.25977
G1 X199.999 Y220.979 E0.26601
G1 X199.804 Y220.464 E0.28857
G1 X199.753 Y220.32 E0.29483
G1 X199.581 Y219.799 E0.31731
G1 X199.534 Y219.647 E0.32383
G1 X199.385 Y219.117 E0.34639
G1 X199.348 Y218.971 E0.35256
G1 X199.222 Y218.437 E0.37504
G1 X199.19 Y218.288 E0.38128
G1 X199.087 Y217.749 E0.40377
G1 X199.06 Y217.585 E0.41058
G1 X198.982 Y217.039 E0.43317
G1 X198.964 Y216.892 E0.43924
G1 X198.909 Y216.345 E0.46177
G1 X198.897 Y216.19 E0.46814
G1 X198.866 Y215.642 E0.49063
G1 X198.86 Y215.5 E0.49645
G1 X198.851 Y214.951 E0.51895
G1 X198.853 Y214.79 E0.52555
G1 X198.869 Y214.24 E0.54809
G1 X198.877 Y214.078 E0.55474
G1 X198.918 Y213.53 E0.57725
G1 X198.933 Y213.376 E0.58359
G1 X198.998 Y212.829 E0.60616
G1 X199.019 Y212.678 E0.61241
G1 X199.107 Y212.137 E0.63487
G1 X199.135 Y211.986 E0.64116
G1 X199.247 Y211.446 E0.66376
G1 X199.284 Y211.286 E0.67049
G1 X199.42 Y210.755 E0.69294
G1 X199.458 Y210.619 E0.69873
G1 X199.616 Y210.091 E0.72131
G1 X199.665 Y209.939 E0.72786
G1 X199.846 Y209.42 E0.75038
G1 X199.902 Y209.271 E0.7569
G1 X200.106 Y208.761 E0.77941
G1 X200.167 Y208.617 E0.78581
G1 X200.393 Y208.117 E0.8083
G1 X200.455 Y207.987 E0.8142
G1 X200.702 Y207.495 E0.83675
G1 X200.778 Y207.352 E0.84339
G1 X201.047 Y206.872 E0.86593
G1 X201.122 Y206.744 E0.87201
G1 X201.41 Y206.277 E0.89449
G1 X201.497 Y206.143 E0.90104
G1 X201.806 Y205.689 E0.92354
G1 X201.893 Y205.567 E0.92968
G1 X202.222 Y205.125 E0.95226
G1 X202.32 Y204.999 E0.9588
G1 X202.667 Y204.574 E0.98128
G1 X202.772 Y204.452 E0.98787
G1 X203.139 Y204.042 E1.01042
G1 X203.245 Y203.929 E1.01677
G1 X203.629 Y203.536 E1.03928
G1 X203.733 Y203.433 E1.04528
G1 X204.133 Y203.056 E1.0678
G1 X204.252 Y202.949 E1.07436
G1 X204.669 Y202.59 E1.0969
G1 X204.782 Y202.497 E1.1029
G1 X205.213 Y202.156 E1.12542
G1 X205.343 Y202.058 E1.13209
G1 X205.788 Y201.738 E1.15455
G1 X205.911 Y201.653 E1.16067
G1 X206.372 Y201.35 E1.18328
G1 X206.513 Y201.262 E1.19009
G1 X206.986 Y200.982 E1.21261
G1 X207.102 Y200.916 E1.21808
G1 X207.585 Y200.654 E1.24059
G1 X207.734 Y200.578 E1.24744
G1 X208.231 Y200.338 E1.27006
G1 X208.376 Y200.272 E1.27659
G1 X208.88 Y200.056 E1.29905
G1 X209.023 Y199.998 E1.30538
G1 X209.536 Y199.804 E1.32785
G1 X209.676 Y199.755 E1.33393
G1 X210.199 Y199.582 E1.3565
G1 X210.353 Y199.534 E1.36311
G1 X210.883 Y199.385 E1.38566
G1 X211.029 Y199.348 E1.39184
G1 X211.563 Y199.222 E1.41432
G1 X211.712 Y199.19 E1.42056
G1 X212.251 Y199.087 E1.44305
G1 X212.415 Y199.06 E1.44986
G1 X212.961 Y198.982 E1.47245
G1 X213.108 Y198.964 E1.47852
G1 X213.655 Y198.909 E1.50105
G1 X213.81 Y198.897 E1.50742
G1 X214.358 Y198.866 E1.52991
G1 X214.5 Y198.86 E1.53573
G1 X215.05 Y198.851 E1.55827
G1 X215.211 Y198.853 E1.56487
G1 X215.76 Y198.869 E1.58737
G1 X215.922 Y198.877 E1.59402
G1 X216.47 Y198.918 E1.61653
G1 X216.624 Y198.933 E1.62287
G1 X217.171 Y198.998 E1.64544
G1 X217.322 Y199.019 E1.65169
G1 X217.863 Y199.107 E1.67415
G1 X218.014 Y199.135 E1.68044
G1 X218.554 Y199.247 E1.70304
G1 X218.717 Y199.285 E1.70989
G1 X219.25 Y199.422 E1.73244
G1 X219.381 Y199.458 E1.73801
G1 X219.907 Y199.615 E1.7605
G1 X220.061 Y199.665 E1.76714
G1 X220.58 Y199.846 E1.78966
G1 X220.729 Y199.902 E1.79618
G1 X221.239 Y200.106 E1.81868
G1 X221.383 Y200.167 E1.82509
G1 X221.883 Y200.393 E1.84757
G1 X222.013 Y200.455 E1.85348
G1 X222.505 Y200.702 E1.87603
G1 X222.65 Y200.779 E1.88276
G1 X223.131 Y201.049 E1.90536
G1 X223.255 Y201.122 E1.91126
G1 X223.721 Y201.409 E1.93368
G1 X223.857 Y201.497 E1.94032
G1 X224.311 Y201.806 E1.96282
G1 X224.433 Y201.893 E1.96896
G1 X224.875 Y202.222 E1.99154
G1 X225.001 Y202.32 E1.99808
G1 X225.426 Y202.667 E2.02056
G1 X225.548 Y202.772 E2.02715
G1 X225.958 Y203.139 E2.0497
G1 X226.071 Y203.245 E2.05605
G1 X226.464 Y203.629 E2.07856
G1 X226.567 Y203.733 E2.08456
G1 X226.944 Y204.133 E2.10708
G1 X227.051 Y204.252 E2.11364
G1 X227.41 Y204.669 E2.13618
G1 X227.503 Y204.782 E2.14218
G1 X227.844 Y205.213 E2.1647
G1 X227.942 Y205.343 E2.17137
G1 X228.262 Y205.788 E2.19383
G1 X228.347 Y205.911 E2.19995
G1 X228.65 Y206.372 E2.22255
G1 X228.738 Y206.513 E2.22937
G1 X229.018 Y206.986 E2.25189
G1 X229.084 Y207.102 E2.25736
G1 X229.346 Y207.585 E2.27987
G1 X229.422 Y207.734 E2.28672
G1 X229.662 Y208.231 E2.30934
G1 X229.728 Y208.376 E2.31586
G1 X229.944 Y208.88 E2.33833
G1 X230.002 Y209.023 E2.34465
G1 X230.196 Y209.536 E2.36713
G1 X230.245 Y209.676 E2.3732
G1 X230.418 Y210.199 E2.39578
G1 X230.465 Y210.352 E2.40233
G1 X230.614 Y210.881 E2.42485
G1 X230.652 Y211.029 E2.43111
G1 X230.778 Y211.564 E2.45363
G1 X230.81 Y211.712 E2.45984
G1 X230.913 Y212.251 E2.48232
G1 X230.94 Y212.415 E2.48913
G1 X231.018 Y212.961 E2.51173
G1 X231.036 Y213.107 E2.51776
G1 X231.091 Y213.652 E2.5402
G1 X231.103 Y213.808 E2.54661
G1 X231.134 Y214.358 E2.56918
G1 X231.14 Y214.5 E2.57501
G1 X231.149 Y215.049 E2.59751
G1 X231.147 Y215.21 E2.6041
G1 X231.131 Y215.76 E2.62665
G1 X231.123 Y215.922 E2.63329
G1 X231.082 Y216.47 E2.65581
G1 X231.067 Y216.624 E2.66215
G1 X231.002 Y217.171 E2.68472
G1 X230.981 Y217.322 E2.69097
G1 X230.893 Y217.863 E2.71342
G1 X230.865 Y218.014 E2.71972
G1 X230.753 Y218.554 E2.74231
G1 X230.716 Y218.714 E2.74904
G1 X230.58 Y219.245 E2.7715
G1 X230.542 Y219.381 E2.77729
G1 X230.384 Y219.909 E2.79987
G1 X230.335 Y220.061 E2.80641
G1 X230.154 Y220.58 E2.82893
G1 X230.098 Y220.729 E2.83546
G1 X229.894 Y221.239 E2.85796
G1 X229.833 Y221.383 E2.86437
G1 X229.607 Y221.883 E2.88685
G1 X229.545 Y222.013 E2.89275
G1 X229.298 Y222.505 E2.91531
G1 X229.222 Y222.648 E2.92195
G1 X228.953 Y223.128 E2.94449
G1 X228.878 Y223.256 E2.95057
G1 X228.59 Y223.723 E2.97305
G1 X228.503 Y223.857 E2.9796
G1 X228.194 Y224.311 E3.0021
G1 X228.107 Y224.433 E3.00824
G1 X227.778 Y224.875 E3.03081
G1 X227.68 Y225.001 E3.03735
G1 X227.333 Y225.426 E3.05984
G1 X227.228 Y225.548 E3.06643
G1 X226.861 Y225.958 E3.08898
G1 X226.755 Y226.071 E3.09533
G1 X226.371 Y226.464 E3.11784
G1 X226.267 Y226.567 E3.12384
G1 X225.867 Y226.944 E3.14636
G1 X225.748 Y227.051 E3.15291
G1 X225.331 Y227.41 E3.17546
G1 X225.218 Y227.503 E3.18146
G1 X224.787 Y227.844 E3.20398
G1 X224.657 Y227.942 E3.21065
G1 X224.212 Y228.262 E3.2331
G1 X224.089 Y228.347 E3.23923
G1 X223.628 Y228.65 E3.26183
G1 X223.487 Y228.738 E3.26864
G1 X223.014 Y229.018 E3.29116
G1 X222.898 Y229.084 E3.29663
G1 X222.415 Y229.346 E3.31915
G1 X222.266 Y229.422 E3.326
G1 X221.769 Y229.662 E3.34861
G1 X221.624 Y229.728 E3.35514
G1 X221.12 Y229.944 E3.37761
G1 X220.977 Y230.002 E3.38393
G1 X220.464 Y230.196 E3.4064
G1 X220.324 Y230.245 E3.41248
G1 X219.801 Y230.418 E3.43505
G1 X219.647 Y230.466 E3.44166
G1 X219.117 Y230.615 E3.46422
G1 X218.971 Y230.652 E3.47039
G1 X218.437 Y230.778 E3.49287
G1 X218.288 Y230.81 E3.49912
G1 X217.749 Y230.913 E3.5216
G1 X217.585 Y230.94 E3.52841
G1 X217.039 Y231.018 E3.55101
G1 X216.892 Y231.036 E3.55708
G1 X216.345 Y231.091 E3.5796
G1 X216.19 Y231.103 E3.58597
G1 X215.642 Y231.134 E3.60846
G1 X215.5 Y231.14 E3.61429
G1 X214.95 Y231.149 E3.63683
G1 X214.789 Y231.147 E3.64342
G1 X214.24 Y231.131 E3.66593
G1 X214.078 Y231.123 E3.67257
G1 X213.53 Y231.082 E3.69509
G1 X213.376 Y231.067 E3.70143
G1 X212.829 Y231.002 E3.724
G1 X212.678 Y230.981 E3.73025
G1 X212.137 Y230.893 E3.7527
G1 X211.986 Y230.865 E3.759
G1 X211.446 Y230.753 E3.78159
G1 X211.283 Y230.715 E3.78845
G1 X210.75 Y230.578 E3.811
G1 X210.619 Y230.542 E3.81657
G1 X210.093 Y230.385 E3.83906
G1 X209.939 Y230.335 E3.84569
G1 X209.42 Y230.154 E3.86821
G1 X209.271 Y230.098 E3.87473
G1 X208.761 Y229.894 E3.89724
G1 X208.617 Y229.833 E3.90365
G1 X208.115 Y229.606 E3.92622
G1 X207.985 Y229.544 E3.93212
G1 X207.495 Y229.298 E3.95459
G1 X207.35 Y229.221 E3.96132
G1 X206.869 Y228.951 E3.98392
G1 X206.745 Y228.878 E3.98981
G1 X206.279 Y228.591 E4.01224
G1 X206.143 Y228.503 E4.01887
G1 X205.689 Y228.194 E4.04138
G1 X205.567 Y228.107 E4.04752
G1 X205.125 Y227.778 E4.07009
G1 X204.999 Y227.679 E4.07666
G1 X204.573 Y227.331 E4.0992
G1 X204.451 Y227.228 E4.10574
G1 X204.042 Y226.862 E4.12823
G1 X203.929 Y226.755 E4.1346
G1 X203.536 Y226.371 E4.15712
G0 F15000 X203.917 Y225.981
G1 F2700 X203.831 Y225.893 E4.16216
G1 X203.454 Y225.493 E4.18468
G1 X203.363 Y225.392 E4.19025
G1 X203.004 Y224.975 E4.2128
G1 X202.925 Y224.879 E4.21789
G1 X202.584 Y224.448 E4.24041
G1 X202.502 Y224.339 E4.246
G1 X202.181 Y223.893 E4.26851
G1 X202.108 Y223.787 E4.27379
G1 X201.806 Y223.327 E4.29633
G1 X201.733 Y223.21 E4.30198
G1 X201.394 Y222.635 E4.32933
G1 X201.133 Y222.153 E4.35179
G1 X201.07 Y222.029 E4.35749
G1 X200.83 Y221.532 E4.3801
G1 X200.774 Y221.409 E4.38564
G1 X200.558 Y220.905 E4.40811
G1 X200.51 Y220.785 E4.4134
G1 X200.315 Y220.27 E4.43597
G1 X200.271 Y220.148 E4.44128
G1 X200.099 Y219.627 E4.46376
G1 X200.06 Y219.499 E4.46924
G1 X199.911 Y218.969 E4.4918
G1 X199.879 Y218.846 E4.49701
G1 X199.753 Y218.312 E4.51949
G1 X199.726 Y218.186 E4.52477
G1 X199.623 Y217.647 E4.54725
G1 X199.6 Y217.508 E4.55303
G1 X199.522 Y216.962 E4.57563
G1 X199.507 Y216.837 E4.58078
G1 X199.452 Y216.29 E4.60331
G1 X199.442 Y216.16 E4.60865
G1 X199.411 Y215.612 E4.63114
G1 X199.406 Y215.491 E4.6361
G1 X199.397 Y214.942 E4.6586
G1 X199.398 Y214.806 E4.66417
G1 X199.414 Y214.256 E4.68672
G1 X199.421 Y214.119 E4.69234
G1 X199.462 Y213.571 E4.71486
G1 X199.475 Y213.441 E4.72021
G1 X199.54 Y212.894 E4.74278
G1 X199.558 Y212.766 E4.74808
G1 X199.646 Y212.225 E4.77053
G1 X199.67 Y212.097 E4.77587
G1 X199.782 Y211.557 E4.79847
G1 X199.813 Y211.422 E4.80414
G1 X199.949 Y210.891 E4.8266
G1 X199.981 Y210.775 E4.83153
G1 X200.139 Y210.247 E4.85411
G1 X200.18 Y210.119 E4.85962
G1 X200.361 Y209.6 E4.88214
G1 X200.409 Y209.474 E4.88767
G1 X200.613 Y208.964 E4.91017
G1 X200.665 Y208.842 E4.91561
G1 X200.891 Y208.342 E4.93809
G1 X200.943 Y208.232 E4.94307
G1 X201.19 Y207.74 E4.96563
G1 X201.254 Y207.619 E4.97124
G1 X201.523 Y207.139 E4.99379
G1 X201.587 Y207.031 E4.99893
G1 X201.875 Y206.564 E5.02141
G1 X201.948 Y206.45 E5.02696
G1 X202.257 Y205.996 E5.04946
G1 X202.331 Y205.893 E5.05465
G1 X202.66 Y205.451 E5.07723
G1 X202.743 Y205.345 E5.08275
G1 X203.09 Y204.92 E5.10523
G1 X203.178 Y204.816 E5.11081
G1 X203.545 Y204.406 E5.13336
G1 X203.635 Y204.31 E5.13875
G1 X204.019 Y203.917 E5.16126
G1 X204.107 Y203.831 E5.1663
G1 X204.507 Y203.454 E5.18882
G1 X204.608 Y203.363 E5.19439
G1 X205.025 Y203.004 E5.21694
G1 X205.121 Y202.925 E5.22203
G1 X205.552 Y202.584 E5.24455
G1 X205.662 Y202.501 E5.2502
G1 X206.107 Y202.181 E5.27266
G1 X206.211 Y202.11 E5.27782
G1 X206.672 Y201.807 E5.30042
G1 X206.791 Y201.732 E5.30618
G1 X207.264 Y201.452 E5.32871
G1 X207.362 Y201.396 E5.33333
G1 X207.845 Y201.134 E5.35584
G1 X207.971 Y201.07 E5.36163
G1 X208.468 Y200.83 E5.38425
G1 X208.591 Y200.774 E5.38979
G1 X209.095 Y200.558 E5.41225
G1 X209.216 Y200.509 E5.4176
G1 X209.729 Y200.315 E5.44007
G1 X209.848 Y200.273 E5.44525
G1 X210.371 Y200.1 E5.46782
G1 X210.501 Y200.06 E5.47339
G1 X211.031 Y199.911 E5.49595
G1 X211.154 Y199.879 E5.50115
G1 X211.688 Y199.753 E5.52364
G1 X211.814 Y199.726 E5.52892
G1 X212.353 Y199.623 E5.5514
G1 X212.492 Y199.6 E5.55717
G1 X213.038 Y199.522 E5.57977
G1 X213.163 Y199.507 E5.58493
G1 X213.71 Y199.452 E5.60746
G1 X213.84 Y199.442 E5.6128
G1 X214.388 Y199.411 E5.63529
G1 X214.509 Y199.406 E5.64025
G1 X215.059 Y199.397 E5.66279
G1 X215.195 Y199.398 E5.66836
G1 X215.744 Y199.414 E5.69086
G1 X215.881 Y199.421 E5.69648
G1 X216.429 Y199.462 E5.719
G1 X216.559 Y199.475 E5.72435
G1 X217.106 Y199.54 E5.74692
G1 X217.234 Y199.558 E5.75222
G1 X217.775 Y199.646 E5.77468
G1 X217.903 Y199.67 E5.78001
G1 X218.443 Y199.782 E5.80261
G1 X218.581 Y199.814 E5.80842
G1 X219.225 Y199.981 E5.83568
G1 X219.751 Y200.138 E5.85817
G1 X219.881 Y200.18 E5.86376
G1 X220.4 Y200.361 E5.88629
G1 X220.526 Y200.409 E5.89181
G1 X221.036 Y200.613 E5.91432
G1 X221.158 Y200.665 E5.91975
G1 X221.658 Y200.891 E5.94223
G1 X221.768 Y200.943 E5.94722
G1 X222.26 Y201.19 E5.96978
G1 X222.383 Y201.255 E5.97548
G1 X222.864 Y201.525 E5.99808
G1 X222.969 Y201.587 E6.00307
G1 X223.435 Y201.874 E6.0255
G1 X223.55 Y201.948 E6.0311
G1 X224.004 Y202.257 E6.0536
G1 X224.107 Y202.331 E6.0588
G1 X224.549 Y202.66 E6.08138
G1 X224.655 Y202.743 E6.08689
G1 X225.08 Y203.09 E6.10937
G1 X225.184 Y203.178 E6.11495
G1 X225.594 Y203.545 E6.1375
G1 X225.69 Y203.635 E6.14289
G1 X226.083 Y204.019 E6.16541
G1 X226.169 Y204.107 E6.17045
G1 X226.546 Y204.507 E6.19297
G1 X226.637 Y204.608 E6.19854
G1 X226.996 Y205.025 E6.22108
G1 X227.075 Y205.121 E6.22618
G1 X227.416 Y205.552 E6.2487
G1 X227.499 Y205.662 E6.25434
G1 X227.819 Y206.107 E6.2768
G1 X227.89 Y206.211 E6.28196
G1 X228.193 Y206.672 E6.30456
G1 X228.268 Y206.791 E6.31033
G1 X228.548 Y207.264 E6.33285
G1 X228.604 Y207.362 E6.33747
G1 X228.866 Y207.845 E6.35999
G1 X228.93 Y207.971 E6.36578
G1 X229.17 Y208.468 E6.38839
G1 X229.226 Y208.591 E6.39393
G1 X229.442 Y209.095 E6.4164
G1 X229.491 Y209.216 E6.42175
G1 X229.685 Y209.729 E6.44422
G1 X229.727 Y209.848 E6.44939
G1 X229.9 Y210.371 E6.47196
G1 X229.94 Y210.5 E6.47749
G1 X230.089 Y211.029 E6.50001
G1 X230.121 Y211.155 E6.50534
G1 X230.247 Y211.69 E6.52786
G1 X230.274 Y211.814 E6.53306
G1 X230.377 Y212.353 E6.55554
G1 X230.4 Y212.492 E6.56132
G1 X230.478 Y213.038 E6.58392
G1 X230.493 Y213.161 E6.58899
G1 X230.548 Y213.706 E6.61144
G1 X230.558 Y213.839 E6.6169
G1 X230.589 Y214.389 E6.63947
G1 X230.594 Y214.509 E6.64439
G1 X230.603 Y215.058 E6.66689
G1 X230.602 Y215.194 E6.67246
G1 X230.586 Y215.744 E6.69501
G1 X230.579 Y215.881 E6.70063
G1 X230.538 Y216.429 E6.72315
G1 X230.525 Y216.559 E6.7285
G1 X230.46 Y217.106 E6.75107
G1 X230.442 Y217.234 E6.75637
G1 X230.354 Y217.775 E6.77882
G1 X230.33 Y217.903 E6.78416
G1 X230.218 Y218.443 E6.80676
G1 X230.187 Y218.578 E6.81243
G1 X230.051 Y219.109 E6.83489
G1 X230.019 Y219.225 E6.83982
G1 X229.861 Y219.753 E6.8624
G1 X229.82 Y219.881 E6.86791
G1 X229.639 Y220.4 E6.89043
G1 X229.591 Y220.526 E6.89596
G1 X229.387 Y221.036 E6.91846
G1 X229.335 Y221.158 E6.9239
G1 X229.109 Y221.658 E6.94638
G1 X229.057 Y221.768 E6.95136
G1 X228.81 Y222.26 E6.97392
G1 X228.746 Y222.381 E6.97953
G1 X228.477 Y222.861 E7.00207
G1 X228.413 Y222.969 E7.00722
G1 X228.125 Y223.436 E7.0297
G1 X228.052 Y223.55 E7.03525
G1 X227.743 Y224.004 E7.05775
G1 X227.669 Y224.107 E7.06294
G1 X227.34 Y224.549 E7.08552
G1 X227.257 Y224.655 E7.09104
G1 X226.91 Y225.08 E7.11352
G1 X226.822 Y225.184 E7.1191
G1 X226.455 Y225.594 E7.14165
G1 X226.365 Y225.69 E7.14704
G1 X225.981 Y226.083 E7.16955
G1 X225.893 Y226.169 E7.17459
G1 X225.493 Y226.546 E7.19711
G1 X225.392 Y226.637 E7.20268
G1 X224.975 Y226.996 E7.22523
G1 X224.879 Y227.075 E7.23032
G1 X224.448 Y227.416 E7.25284
G1 X224.338 Y227.499 E7.25849
G1 X223.893 Y227.819 E7.28095
G1 X223.789 Y227.89 E7.28611
G1 X223.328 Y228.193 E7.30871
G1 X223.209 Y228.268 E7.31447
G1 X222.736 Y228.548 E7.337
