;FLAVOR:Marlin
;TIME:5771
;Filament used: 14.4953m
;Layer height: 0.2
;MINX:154.45
;MINY:157.607
;MINZ:0.2
;MAXX:295.682
;MAXY:272.393
;MAXZ:20
;Generated with Cura_SteamEngine 4.8.0
M82 ;absolute extrusion mode
;ELEGOO NEPTUNE 4 MAX
M220 S100 ;Set the feed speed to 100%
M221 S100 ;Set the flow rate to 100%
M104 S140
M190 S60
G90
G28 ;home
G1 Z10 F300
G1 X165 Y0.5 F6000
G1 Z0 F300
M109 S220
G92 E0 ;Reset Extruder
G1 X165 Y0.5 Z0.4 F300 ;Move to start position
G1 X265 E30 F400 ;Draw the first line
G1 Z0.6 F120.0 ;Move to side a little
G1 X260 F3000
G92 E0 ;Reset Extruder
G92 E0
G92 E0
G1 F2700 E-0.8
;LAYER_COUNT:100
;LAYER:0
M107
M204 S500
G1 F600 Z0.6
G0 F15000 X254.108 Y250.404 Z0.6
;TYPE:SKIRT
G1 F600 Z0.2
G1 F2700 E0
G1 X253.668 Y249.743 E0.03254
G1 X253.528 Y249.515 E0.0435
G1 X253.139 Y248.823 E0.07602
G1 X253.007 Y248.562 E0.08801
G1 X252.678 Y247.844 E0.12037
G1 X252.577 Y247.601 E0.13115
G1 X252.3 Y246.855 E0.16376
G1 X252.209 Y246.575 E0.17582
G1 X251.996 Y245.813 E0.20824
G1 X251.935 Y245.559 E0.21894
G1 X251.778 Y244.78 E0.2515
G1 X251.733 Y244.496 E0.26328
G1 X251.64 Y243.71 E0.29571
G1 X251.618 Y243.432 E0.30714
G1 X251.587 Y242.641 E0.33957
G1 X251.584 Y242.502 E0.34527
G1 X251.583 Y177.4 E3.01273
G1 X251.623 Y176.869 E3.03455
G1 X251.742 Y176.35 E3.05637
G1 X251.937 Y175.855 E3.07817
G1 X252.204 Y175.394 E3.1
G1 X252.537 Y174.979 E3.1218
G1 X252.929 Y174.618 E3.14363
G1 X253.37 Y174.319 E3.16546
G1 X253.851 Y174.09 E3.18729
G1 X254.36 Y173.936 E3.20908
G1 X255.132 Y173.851 E3.2409
G1 X292.133 Y173.851 E4.75697
G1 X292.664 Y173.891 E4.77878
G1 X293.183 Y174.01 E4.8006
G1 X293.678 Y174.205 E4.8224
G1 X294.139 Y174.472 E4.84423
G1 X294.554 Y174.805 E4.86603
G1 X294.915 Y175.197 E4.88787
G1 X295.214 Y175.638 E4.9097
G1 X295.443 Y176.119 E4.93152
G1 X295.597 Y176.628 E4.95331
G1 X295.682 Y177.4 E4.98514
G1 X295.682 Y242.502 E7.6526
G1 X295.679 Y242.637 E7.65813
G1 X295.649 Y243.427 E7.69052
G1 X295.627 Y243.713 E7.70228
G1 X295.533 Y244.5 E7.73475
G1 X295.49 Y244.772 E7.74604
G1 X295.335 Y245.551 E7.77858
G1 X295.27 Y245.822 E7.79
G1 X295.055 Y246.584 E7.82244
G1 X294.968 Y246.851 E7.83394
G1 X294.692 Y247.597 E7.86654
G1 X294.588 Y247.848 E7.87767
G1 X294.258 Y248.566 E7.91005
G1 X294.129 Y248.82 E7.92172
G1 X293.741 Y249.512 E7.95422
G1 X293.599 Y249.743 E7.96534
G1 X293.159 Y250.404 E7.99787
G1 X292.987 Y250.641 E8.00987
G1 X292.495 Y251.262 E8.04233
G1 X292.321 Y251.465 E8.05329
G1 X291.783 Y252.048 E8.08579
G1 X291.584 Y252.247 E8.09732
G1 X291.001 Y252.786 E8.12985
G1 X290.79 Y252.966 E8.14122
G1 X290.169 Y253.456 E8.17363
G1 X289.939 Y253.624 E8.1853
G1 X289.277 Y254.065 E8.21789
G1 X289.049 Y254.204 E8.22883
G1 X288.359 Y254.592 E8.26127
G1 X288.101 Y254.724 E8.27314
G1 X287.381 Y255.055 E8.30561
G1 X287.136 Y255.157 E8.31649
G1 X286.391 Y255.434 E8.34905
G1 X286.109 Y255.525 E8.36119
G1 X285.347 Y255.738 E8.39361
G1 X285.089 Y255.8 E8.40448
G1 X284.31 Y255.956 E8.43704
G1 X284.029 Y256 E8.44869
G1 X283.242 Y256.093 E8.48116
G1 X282.965 Y256.115 E8.49255
G1 X282.174 Y256.146 E8.52498
G1 X282.035 Y256.149 E8.53068
G1 X265.232 Y256.149 E9.21916
G1 X265.093 Y256.146 E9.22485
G1 X264.302 Y256.115 E9.25729
G1 X264.025 Y256.093 E9.26867
G1 X263.238 Y256 E9.30114
G1 X262.961 Y255.957 E9.31263
G1 X262.182 Y255.802 E9.34517
G1 X261.911 Y255.737 E9.35659
G1 X261.149 Y255.522 E9.38903
G1 X260.88 Y255.434 E9.40063
G1 X260.135 Y255.158 E9.43318
G1 X259.887 Y255.055 E9.44419
G1 X259.166 Y254.724 E9.47669
G1 X258.907 Y254.592 E9.4886
G1 X258.217 Y254.204 E9.52104
G1 X257.987 Y254.063 E9.53209
G1 X257.326 Y253.622 E9.56465
G1 X257.098 Y253.456 E9.57621
G1 X256.477 Y252.966 E9.60862
G1 X256.268 Y252.788 E9.61987
G1 X255.684 Y252.249 E9.65243
G1 X255.483 Y252.048 E9.66408
G1 X254.945 Y251.465 E9.69658
G1 X254.769 Y251.259 E9.70768
G1 X254.278 Y250.638 E9.74012
G1 X254.108 Y250.404 E9.75197
G0 F15000 X254.562 Y250.101
G1 F2700 X254.122 Y249.44 E9.78451
G1 X254.004 Y249.248 E9.79374
G1 X253.615 Y248.556 E9.82627
G1 X253.503 Y248.335 E9.83642
G1 X253.174 Y247.617 E9.86878
G1 X253.089 Y247.411 E9.87791
G1 X252.812 Y246.665 E9.91051
G1 X252.735 Y246.428 E9.92072
G1 X252.522 Y245.666 E9.95314
G1 X252.47 Y245.451 E9.96221
G1 X252.313 Y244.672 E9.99477
G1 X252.275 Y244.432 E10.00472
G1 X252.182 Y243.646 E10.03715
G1 X252.163 Y243.411 E10.04681
G1 X252.132 Y242.62 E10.07925
G1 X252.13 Y242.502 E10.08408
G1 X252.129 Y177.4 E12.75155
G1 X252.169 Y176.912 E12.77161
G1 X252.288 Y176.437 E12.79167
G1 X252.482 Y175.987 E12.81175
G1 X252.747 Y175.575 E12.83182
G1 X253.075 Y175.212 E12.85187
G1 X253.458 Y174.907 E12.87193
G1 X253.886 Y174.668 E12.89201
G1 X254.346 Y174.502 E12.91205
G1 X254.828 Y174.412 E12.93214
G1 X255.132 Y174.397 E12.94461
G1 X292.133 Y174.397 E14.46068
G1 X292.621 Y174.437 E14.48074
G1 X293.096 Y174.556 E14.5008
G1 X293.546 Y174.75 E14.52088
G1 X293.958 Y175.015 E14.54095
G1 X294.321 Y175.343 E14.561
G1 X294.626 Y175.726 E14.58106
G1 X294.865 Y176.154 E14.60114
G1 X295.031 Y176.614 E14.62118
G1 X295.121 Y177.096 E14.64127
G1 X295.136 Y177.4 E14.65374
G1 X295.136 Y242.502 E17.32121
G1 X295.134 Y242.616 E17.32588
G1 X295.104 Y243.406 E17.35827
G1 X295.085 Y243.648 E17.36822
G1 X294.991 Y244.435 E17.40069
G1 X294.954 Y244.665 E17.41024
G1 X294.799 Y245.444 E17.44278
G1 X294.744 Y245.673 E17.45243
G1 X294.529 Y246.435 E17.48487
G1 X294.455 Y246.662 E17.49465
G1 X294.179 Y247.408 E17.52725
G1 X294.092 Y247.62 E17.53663
G1 X293.762 Y248.338 E17.56901
G1 X293.652 Y248.553 E17.57891
G1 X293.264 Y249.245 E17.61141
G1 X293.145 Y249.44 E17.62077
G1 X292.705 Y250.101 E17.65331
G1 X292.559 Y250.302 E17.66349
G1 X292.067 Y250.923 E17.69595
G1 X291.92 Y251.095 E17.70522
G1 X291.382 Y251.678 E17.73773
G1 X291.214 Y251.846 E17.74746
G1 X290.631 Y252.385 E17.77999
G1 X290.452 Y252.537 E17.78961
G1 X289.831 Y253.027 E17.82203
G1 X289.636 Y253.169 E17.83191
G1 X288.974 Y253.61 E17.8645
G1 X288.781 Y253.729 E17.87379
G1 X288.091 Y254.117 E17.90623
G1 X287.873 Y254.227 E17.91623
G1 X287.153 Y254.558 E17.9487
G1 X286.946 Y254.645 E17.9579
G1 X286.201 Y254.922 E17.99047
G1 X285.962 Y254.999 E18.00076
G1 X285.2 Y255.212 E18.03318
G1 X284.982 Y255.265 E18.04237
G1 X284.203 Y255.421 E18.07492
G1 X283.965 Y255.458 E18.08479
G1 X283.178 Y255.551 E18.11726
G1 X282.944 Y255.57 E18.12688
G1 X282.153 Y255.601 E18.15931
G1 X282.035 Y255.603 E18.16415
G1 X265.232 Y255.603 E18.85263
G1 X265.114 Y255.601 E18.85746
G1 X264.323 Y255.57 E18.8899
G1 X264.089 Y255.551 E18.89952
G1 X263.302 Y255.458 E18.93199
G1 X263.068 Y255.421 E18.9417
G1 X262.289 Y255.266 E18.97424
G1 X262.06 Y255.211 E18.98389
G1 X261.298 Y254.996 E19.01633
G1 X261.07 Y254.922 E19.02615
G1 X260.325 Y254.646 E19.05871
G1 X260.115 Y254.559 E19.06802
G1 X259.394 Y254.228 E19.10053
G1 X259.175 Y254.117 E19.11059
G1 X258.485 Y253.729 E19.14302
G1 X258.29 Y253.609 E19.1524
G1 X257.629 Y253.168 E19.18496
G1 X257.436 Y253.027 E19.19475
G1 X256.815 Y252.537 E19.22717
G1 X256.638 Y252.387 E19.23667
G1 X256.054 Y251.848 E19.26923
G1 X255.884 Y251.678 E19.27908
G1 X255.346 Y251.095 E19.31159
G1 X255.197 Y250.921 E19.32098
G1 X254.706 Y250.3 E19.35341
G1 X254.562 Y250.101 E19.36348
G0 F15000 X255.017 Y249.798
G1 F2700 X254.577 Y249.137 E19.39601
G1 X254.48 Y248.98 E19.40357
G1 X254.091 Y248.288 E19.4361
G1 X253.999 Y248.108 E19.44438
G1 X253.67 Y247.39 E19.47674
G1 X253.601 Y247.221 E19.48422
G1 X253.324 Y246.475 E19.51683
G1 X253.261 Y246.281 E19.52519
G1 X253.048 Y245.519 E19.5576
G1 X253.005 Y245.343 E19.56503
G1 X252.848 Y244.564 E19.59759
G1 X252.817 Y244.368 E19.60572
G1 X252.724 Y243.582 E19.63815
G1 X252.709 Y243.389 E19.64608
G1 X252.678 Y242.598 E19.67852
G1 X252.676 Y242.502 E19.68245
G1 X252.675 Y177.4 E22.34991
G1 X252.715 Y176.959 E22.36806
G1 X252.833 Y176.532 E22.38621
G1 X253.027 Y176.134 E22.40435
G1 X253.288 Y175.776 E22.4225
G1 X253.61 Y175.472 E22.44065
G1 X253.98 Y175.23 E22.45876
G1 X254.389 Y175.058 E22.47694
G1 X254.821 Y174.963 E22.49506
G1 X255.132 Y174.943 E22.50783
G1 X292.133 Y174.943 E24.0239
G1 X292.574 Y174.983 E24.04204
G1 X293.001 Y175.101 E24.06019
G1 X293.399 Y175.295 E24.07833
G1 X293.757 Y175.556 E24.09649
G1 X294.061 Y175.878 E24.11463
G1 X294.303 Y176.249 E24.13278
G1 X294.475 Y176.657 E24.15092
G1 X294.57 Y177.089 E24.16904
G1 X294.59 Y177.4 E24.18181
G1 X294.59 Y242.502 E26.84928
G1 X294.558 Y243.385 E26.88548
G1 X294.543 Y243.583 E26.89362
G1 X294.449 Y244.37 E26.92609
G1 X294.419 Y244.558 E26.93389
G1 X294.264 Y245.337 E26.96644
G1 X294.219 Y245.525 E26.97436
G1 X294.004 Y246.287 E27.0068
G1 X293.943 Y246.473 E27.01482
G1 X293.667 Y247.219 E27.04741
G1 X293.595 Y247.392 E27.05509
G1 X293.265 Y248.11 E27.08746
G1 X293.176 Y248.286 E27.09554
G1 X292.788 Y248.978 E27.12805
G1 X292.69 Y249.137 E27.1357
G1 X292.25 Y249.798 E27.16824
G1 X292.131 Y249.963 E27.17657
G1 X291.639 Y250.584 E27.20904
G1 X291.519 Y250.724 E27.21659
G1 X290.981 Y251.307 E27.2491
G1 X290.843 Y251.445 E27.25709
G1 X290.26 Y251.984 E27.28963
G1 X290.114 Y252.109 E27.2975
G1 X289.493 Y252.599 E27.32991
G1 X289.333 Y252.715 E27.33801
G1 X288.671 Y253.156 E27.3706
G1 X288.513 Y253.253 E27.3782
G1 X287.823 Y253.641 E27.41063
G1 X287.645 Y253.731 E27.41881
G1 X286.925 Y254.062 E27.45128
G1 X286.755 Y254.133 E27.45882
G1 X286.01 Y254.41 E27.49139
G1 X285.815 Y254.473 E27.49979
G1 X285.053 Y254.686 E27.53221
G1 X284.874 Y254.729 E27.53975
G1 X284.095 Y254.885 E27.5723
G1 X283.901 Y254.916 E27.58035
G1 X283.114 Y255.009 E27.61282
G1 X282.922 Y255.024 E27.62071
G1 X282.131 Y255.055 E27.65315
G1 X282.035 Y255.057 E27.65708
G1 X265.232 Y255.057 E28.34556
G1 X265.136 Y255.055 E28.34949
G1 X264.345 Y255.024 E28.38193
G1 X264.153 Y255.009 E28.38982
G1 X263.366 Y254.916 E28.42229
G1 X263.175 Y254.886 E28.43021
G1 X262.396 Y254.731 E28.46276
G1 X262.208 Y254.686 E28.47068
G1 X261.446 Y254.471 E28.50312
G1 X261.259 Y254.41 E28.51118
G1 X260.514 Y254.134 E28.54373
G1 X260.343 Y254.063 E28.55132
G1 X259.622 Y253.732 E28.58382
G1 X259.443 Y253.641 E28.59205
G1 X258.753 Y253.253 E28.62449
G1 X258.593 Y253.155 E28.63217
G1 X257.932 Y252.714 E28.66473
G1 X257.774 Y252.599 E28.67274
G1 X257.153 Y252.109 E28.70515
G1 X257.009 Y251.986 E28.71291
G1 X256.425 Y251.447 E28.74547
G1 X256.285 Y251.307 E28.75358
G1 X255.747 Y250.724 E28.78609
G1 X255.626 Y250.582 E28.79373
G1 X255.135 Y249.961 E28.82617
G1 X255.017 Y249.798 E28.83442
G0 F15000 X255.471 Y249.496
G1 F2700 X255.031 Y248.835 E28.86695
G1 X254.956 Y248.712 E28.87285
G1 X254.567 Y248.02 E28.90538
G1 X254.496 Y247.88 E28.91181
G1 X254.167 Y247.162 E28.94417
G1 X254.113 Y247.031 E28.94998
G1 X253.836 Y246.285 E28.98258
G1 X253.787 Y246.134 E28.98909
G1 X253.574 Y245.372 E29.02151
G1 X253.541 Y245.236 E29.02724
G1 X253.384 Y244.457 E29.0598
G1 X253.359 Y244.304 E29.06615
G1 X253.266 Y243.518 E29.09858
G1 X253.254 Y243.368 E29.10475
G1 X253.223 Y242.577 E29.13718
G1 X253.221 Y177.4 E31.80772
G1 X253.261 Y177.012 E31.8237
G1 X253.379 Y176.639 E31.83973
G1 X253.57 Y176.299 E31.85571
G1 X253.827 Y176.004 E31.87174
G1 X254.137 Y175.768 E31.8877
G1 X254.49 Y175.6 E31.90372
G1 X254.869 Y175.507 E31.91971
G1 X255.132 Y175.489 E31.93051
G1 X292.133 Y175.489 E33.44658
G1 X292.521 Y175.529 E33.46256
G1 X292.894 Y175.647 E33.47859
G1 X293.234 Y175.838 E33.49457
G1 X293.529 Y176.095 E33.5106
G1 X293.765 Y176.406 E33.52659
G1 X293.933 Y176.758 E33.54257
G1 X294.026 Y177.137 E33.55856
G1 X294.044 Y177.4 E33.56937
G1 X294.043 Y242.575 E36.23982
G1 X294.013 Y243.365 E36.27221
G1 X294.001 Y243.519 E36.27854
G1 X293.907 Y244.306 E36.31102
G1 X293.883 Y244.452 E36.31708
G1 X293.728 Y245.231 E36.34962
G1 X293.693 Y245.377 E36.35577
G1 X293.478 Y246.139 E36.38821
G1 X293.431 Y246.283 E36.39442
G1 X293.155 Y247.029 E36.42701
G1 X293.099 Y247.164 E36.433
G1 X292.769 Y247.882 E36.46538
G1 X292.7 Y248.019 E36.47166
G1 X292.312 Y248.711 E36.50417
G1 X292.236 Y248.835 E36.51013
G1 X291.796 Y249.496 E36.54266
G1 X291.703 Y249.624 E36.54915
G1 X291.211 Y250.245 E36.58161
G1 X291.117 Y250.354 E36.58751
G1 X290.579 Y250.937 E36.62001
G1 X290.472 Y251.044 E36.62621
G1 X289.889 Y251.583 E36.65874
G1 X289.776 Y251.68 E36.66485
G1 X289.155 Y252.17 E36.69726
G1 X289.03 Y252.26 E36.70357
G1 X288.368 Y252.701 E36.73616
G1 X288.246 Y252.777 E36.74205
G1 X287.556 Y253.165 E36.77448
G1 X287.417 Y253.235 E36.78086
G1 X286.697 Y253.566 E36.81333
G1 X286.565 Y253.621 E36.81919
G1 X285.82 Y253.898 E36.85176
G1 X285.668 Y253.947 E36.8583
G1 X284.906 Y254.16 E36.89072
G1 X284.767 Y254.194 E36.89658
G1 X283.988 Y254.35 E36.92913
G1 X283.837 Y254.374 E36.9354
G1 X283.05 Y254.467 E36.96787
G1 X282.901 Y254.479 E36.97399
G1 X282.11 Y254.51 E37.00643
G1 X265.232 Y254.511 E37.69798
G1 X265.157 Y254.51 E37.70105
G1 X264.366 Y254.479 E37.73349
G1 X264.217 Y254.467 E37.73961
G1 X263.43 Y254.374 E37.77209
G1 X263.281 Y254.35 E37.77827
G1 X262.502 Y254.195 E37.81081
G1 X262.356 Y254.16 E37.81696
G1 X261.594 Y253.945 E37.84941
G1 X261.449 Y253.898 E37.85565
G1 X260.704 Y253.622 E37.8882
G1 X260.571 Y253.567 E37.8941
G1 X259.85 Y253.236 E37.92661
G1 X259.71 Y253.165 E37.93304
G1 X259.02 Y252.777 E37.96547
G1 X258.896 Y252.701 E37.97143
G1 X258.235 Y252.26 E38.00399
G1 X258.112 Y252.17 E38.01024
G1 X257.491 Y251.68 E38.04265
G1 X257.379 Y251.584 E38.04869
G1 X256.795 Y251.045 E38.08125
G1 X256.687 Y250.937 E38.08751
G1 X256.149 Y250.354 E38.12002
G1 X256.054 Y250.243 E38.126
G1 X255.563 Y249.622 E38.15844
G1 X255.471 Y249.496 E38.16483
G0 F15000 X255.926 Y249.193
G1 F2700 X255.486 Y248.532 E38.19737
G1 X255.432 Y248.445 E38.20156
G1 X255.043 Y247.753 E38.23409
G1 X254.992 Y247.653 E38.23869
G1 X254.663 Y246.935 E38.27105
G1 X254.624 Y246.841 E38.27522
G1 X254.347 Y246.095 E38.30782
G1 X254.312 Y245.987 E38.31248
G1 X254.099 Y245.225 E38.3449
G1 X254.076 Y245.128 E38.34898
G1 X253.919 Y244.349 E38.38154
G1 X253.901 Y244.239 E38.38611
G1 X253.808 Y243.453 E38.41854
G1 X253.8 Y243.346 E38.42293
G1 X253.768 Y242.502 E38.45754
G1 X253.767 Y177.4 E41.125
G1 X253.807 Y177.073 E41.1385
G1 X253.924 Y176.764 E41.15204
G1 X254.112 Y176.493 E41.16555
G1 X254.359 Y176.275 E41.17905
G1 X254.652 Y176.122 E41.19259
G1 X255.132 Y176.035 E41.21258
G1 X292.133 Y176.035 E42.72865
G1 X292.46 Y176.075 E42.74214
G1 X292.769 Y176.192 E42.75568
G1 X293.04 Y176.38 E42.7692
G1 X293.258 Y176.627 E42.78269
G1 X293.411 Y176.92 E42.79624
G1 X293.498 Y177.4 E42.81623
G1 X293.497 Y242.554 E45.48582
G1 X293.467 Y243.344 E45.51821
G1 X293.458 Y243.454 E45.52273
G1 X293.364 Y244.241 E45.55521
G1 X293.348 Y244.345 E45.55952
G1 X293.193 Y245.124 E45.59206
G1 X293.168 Y245.229 E45.59649
G1 X292.953 Y245.991 E45.62893
G1 X292.919 Y246.094 E45.63337
G1 X292.643 Y246.84 E45.66596
G1 X292.603 Y246.936 E45.67022
G1 X292.273 Y247.654 E45.7026
G1 X292.224 Y247.752 E45.70709
G1 X291.836 Y248.444 E45.7396
G1 X291.781 Y248.532 E45.74385
G1 X291.341 Y249.193 E45.77638
G1 X291.275 Y249.285 E45.78102
G1 X290.783 Y249.906 E45.81349
G1 X290.716 Y249.984 E45.8177
G1 X290.178 Y250.567 E45.8502
G1 X290.102 Y250.643 E45.85461
G1 X289.519 Y251.182 E45.88714
G1 X289.438 Y251.252 E45.89153
G1 X288.817 Y251.742 E45.92394
G1 X288.728 Y251.806 E45.92843
G1 X288.066 Y252.247 E45.96102
G1 X287.978 Y252.301 E45.96525
G1 X287.288 Y252.689 E45.99769
G1 X287.189 Y252.739 E46.00223
G1 X286.469 Y253.07 E46.0347
G1 X286.375 Y253.109 E46.03887
G1 X285.63 Y253.386 E46.07144
G1 X285.521 Y253.422 E46.07614
G1 X284.759 Y253.635 E46.10856
G1 X284.66 Y253.658 E46.11272
G1 X283.881 Y253.814 E46.14528
G1 X283.773 Y253.832 E46.14976
G1 X282.986 Y253.925 E46.18223
G1 X282.879 Y253.933 E46.18663
G1 X282.035 Y253.965 E46.22124
G1 X265.179 Y253.964 E46.91189
G1 X264.388 Y253.933 E46.94432
G1 X264.281 Y253.925 E46.94872
G1 X263.494 Y253.832 E46.98119
G1 X263.388 Y253.815 E46.98559
G1 X262.609 Y253.66 E47.01813
G1 X262.504 Y253.635 E47.02255
G1 X261.742 Y253.42 E47.05499
G1 X261.639 Y253.386 E47.05944
G1 X260.894 Y253.11 E47.09199
G1 X260.798 Y253.071 E47.09624
G1 X260.077 Y252.74 E47.12874
G1 X259.978 Y252.689 E47.13331
G1 X259.288 Y252.301 E47.16574
