;FLAVOR:Marlin
;TIME:1795
;Filament used: 3.03033m
;Layer height: 0.3
;MINX:195.419
;MINY:118.598
;MINZ:0.2
;MAXX:234.581
;MAXY:287.2
;MAXZ:34.4
;Generated with Cura_SteamEngine 4.8.0
M82 ;absolute extrusion mode
;ELEGOO NEPTUNE 4 MAX
M220 S100 ;Set the feed speed to 100%
M221 S100 ;Set the flow rate to 100%
M104 S140
M190 S60
G90
G28 ;home
G1 Z10 F300
G1 X165 Y0.5 F6000
G1 Z0 F300
M109 S210
G92 E0 ;Reset Extruder
G1 X165 Y0.5 Z0.4 F300 ;Move to start position
G1 X265 E30 F400 ;Draw the first line
G1 Z0.6 F120.0 ;Move to side a little
G1 X260 F3000
G92 E0 ;Reset Extruder
G92 E0
G92 E0
G1 F2700 E-0.8
;LAYER_COUNT:115
;LAYER:0
M107
M204 S500
G1 F600 Z0.6
G0 F15000 X203.26 Y154 Z0.6
;TYPE:SKIRT
G1 F600 Z0.2
G1 F2700 E0
G1 X202.854 Y153.654 E0.02186
G1 X202.505 Y153.253 E0.04364
G1 X202.22 Y152.803 E0.06546
G1 X202.111 Y152.562 E0.0763
G1 X201.806 Y152.459 E0.08949
G1 X201.333 Y152.214 E0.11132
G1 X200.901 Y151.902 E0.13315
G1 X200.236 Y151.209 E0.1725
G1 X199.912 Y150.786 E0.19434
G1 X199.655 Y150.32 E0.21614
G1 X199.47 Y149.821 E0.23795
G1 X199.416 Y149.568 E0.24855
G1 X199.064 Y149.346 E0.2656
G1 X198.66 Y148.998 E0.28745
G1 X198.314 Y148.594 E0.30924
G1 X197.872 Y147.872 E0.34393
G1 X197.64 Y147.393 E0.36573
G1 X197.483 Y146.884 E0.38756
G1 X197.404 Y146.357 E0.40939
G1 X197.403 Y146.08 E0.42074
G1 X197.149 Y145.841 E0.43503
G1 X196.819 Y145.423 E0.45685
G1 X196.556 Y144.96 E0.47867
G1 X196.248 Y144.109 E0.51575
G1 X196.121 Y143.592 E0.53757
G1 X196.072 Y143.061 E0.55942
G1 X196.104 Y142.53 E0.58121
G1 X196.157 Y142.252 E0.59281
G1 X195.915 Y141.885 E0.61082
G1 X195.691 Y141.401 E0.63267
G1 X195.543 Y140.89 E0.65447
G1 X195.437 Y140.052 E0.68908
G1 X195.423 Y139.52 E0.71089
G1 X195.489 Y138.992 E0.73269
G1 X195.633 Y138.479 E0.75452
G1 X195.737 Y138.248 E0.7649
G1 X195.574 Y137.829 E0.78332
G1 X195.457 Y137.309 E0.80516
G1 X195.419 Y136.778 E0.82697
G1 X195.484 Y135.971 E0.86015
G1 X195.578 Y135.447 E0.88196
G1 X195.749 Y134.943 E0.90377
G1 X195.994 Y134.47 E0.92559
G1 X196.157 Y134.242 E0.93708
G1 X196.085 Y133.814 E0.95486
G1 X196.076 Y133.282 E0.97666
G1 X196.147 Y132.754 E0.99849
G1 X196.387 Y131.953 E1.03275
G1 X196.589 Y131.46 E1.05458
G1 X196.862 Y131.004 E1.07636
G1 X197.201 Y130.593 E1.09819
G1 X197.401 Y130.413 E1.10921
G1 X197.422 Y129.965 E1.12759
G1 X197.526 Y129.443 E1.1494
G1 X197.707 Y128.943 E1.17118
G1 X198.096 Y128.23 E1.20446
G1 X198.395 Y127.79 E1.22626
G1 X198.756 Y127.399 E1.24806
G1 X199.172 Y127.066 E1.2699
G1 X199.415 Y126.924 E1.28143
G1 X199.521 Y126.51 E1.29894
G1 X199.729 Y126.02 E1.32075
G1 X200.007 Y125.566 E1.34256
G1 X200.552 Y124.931 E1.37685
G1 X200.937 Y124.563 E1.39867
G1 X201.373 Y124.257 E1.4205
G1 X201.849 Y124.019 E1.4423
G1 X202.109 Y123.929 E1.45358
G1 X202.311 Y123.528 E1.47197
G1 X202.619 Y123.094 E1.49378
G1 X202.989 Y122.71 E1.51563
G1 X203.627 Y122.223 E1.54851
G1 X204.079 Y121.942 E1.57032
G1 X204.569 Y121.732 E1.59217
G1 X205.084 Y121.597 E1.61398
G1 X205.367 Y121.562 E1.62566
G1 X205.663 Y121.197 E1.64492
G1 X206.057 Y120.838 E1.66676
G1 X206.5 Y120.542 E1.68859
G1 X207.218 Y120.205 E1.72109
G1 X207.719 Y120.026 E1.74289
G1 X208.242 Y119.924 E1.76472
G1 X208.774 Y119.901 E1.78654
G1 X209.048 Y119.924 E1.7978
G1 X209.298 Y119.706 E1.81139
G1 X209.747 Y119.42 E1.83321
G1 X210.234 Y119.205 E1.85502
G1 X211.147 Y118.98 E1.89355
G1 X211.675 Y118.909 E1.91538
G1 X212.207 Y118.918 E1.93718
G1 X212.732 Y119.007 E1.95899
G1 X212.984 Y119.088 E1.96984
G1 X213.371 Y118.886 E1.98773
G1 X213.875 Y118.714 E2.00955
G1 X214.399 Y118.618 E2.03137
G1 X215.218 Y118.598 E2.06494
G1 X215.749 Y118.637 E2.08676
G1 X216.269 Y118.755 E2.10861
G1 X216.764 Y118.949 E2.13039
G1 X217.013 Y119.086 E2.14203
G1 X217.443 Y118.969 E2.16029
G1 X217.972 Y118.906 E2.18212
G1 X218.504 Y118.924 E2.20393
G1 X219.307 Y119.076 E2.23742
G1 X219.818 Y119.225 E2.25923
G1 X220.301 Y119.449 E2.28104
G1 X220.745 Y119.743 E2.30286
G1 X220.954 Y119.924 E2.31419
G1 X221.387 Y119.897 E2.33197
G1 X221.918 Y119.944 E2.35381
G1 X222.435 Y120.07 E2.37561
G1 X223.188 Y120.383 E2.40902
G1 X223.657 Y120.634 E2.43082
G1 X224.084 Y120.953 E2.45266
G1 X224.458 Y121.332 E2.47448
G1 X224.633 Y121.562 E2.48632
G1 X225.053 Y121.623 E2.50371
G1 X225.563 Y121.778 E2.52555
G1 X226.043 Y122.008 E2.54736
G1 X226.74 Y122.49 E2.58208
G1 X227.146 Y122.836 E2.60393
G1 X227.495 Y123.237 E2.62572
G1 X227.78 Y123.687 E2.64754
G1 X227.89 Y123.93 E2.65847
G1 X228.207 Y124.039 E2.6722
G1 X228.679 Y124.285 E2.69401
G1 X229.109 Y124.599 E2.71583
G1 X229.753 Y125.269 E2.75391
G1 X230.079 Y125.69 E2.77572
G1 X230.339 Y126.155 E2.79755
G1 X230.525 Y126.654 E2.81937
G1 X230.583 Y126.92 E2.83053
G1 X230.956 Y127.158 E2.84866
G1 X231.357 Y127.509 E2.87049
G1 X231.701 Y127.915 E2.8923
G1 X232.133 Y128.627 E2.92642
G1 X232.362 Y129.108 E2.94825
G1 X232.517 Y129.617 E2.97005
G1 X232.594 Y130.144 E2.99187
G1 X232.598 Y130.411 E3.00281
G1 X232.851 Y130.649 E3.01704
G1 X233.181 Y131.067 E3.03887
G1 X233.444 Y131.53 E3.06068
G1 X233.756 Y132.397 E3.09844
G1 X233.882 Y132.915 E3.12028
G1 X233.929 Y133.445 E3.14208
G1 X233.896 Y133.976 E3.16388
G1 X233.843 Y134.238 E3.17483
G1 X234.085 Y134.605 E3.19285
G1 X234.309 Y135.089 E3.2147
G1 X234.457 Y135.6 E3.2365
G1 X234.563 Y136.434 E3.27094
G1 X234.577 Y136.966 E3.29275
G1 X234.511 Y137.495 E3.31459
G1 X234.367 Y138.007 E3.33638
G1 X234.263 Y138.243 E3.34695
G1 X234.426 Y138.661 E3.36533
G1 X234.543 Y139.181 E3.38717
G1 X234.581 Y139.712 E3.40898
G1 X234.515 Y140.518 E3.44212
G1 X234.422 Y141.042 E3.46393
G1 X234.25 Y141.547 E3.48578
G1 X234.005 Y142.019 E3.50757
G1 X233.843 Y142.247 E3.51903
G1 X233.915 Y142.676 E3.53686
G1 X233.924 Y143.208 E3.55866
G1 X233.853 Y143.736 E3.58049
G1 X233.613 Y144.537 E3.61475
G1 X233.411 Y145.03 E3.63658
G1 X233.138 Y145.486 E3.65836
G1 X232.799 Y145.897 E3.68018
G1 X232.598 Y146.079 E3.69129
G1 X232.58 Y146.509 E3.70893
G1 X232.478 Y147.032 E3.73076
G1 X232.299 Y147.533 E3.75256
G1 X231.893 Y148.275 E3.78722
G1 X231.592 Y148.714 E3.80903
G1 X231.229 Y149.103 E3.83083
G1 X230.811 Y149.434 E3.85267
G1 X230.585 Y149.566 E3.8634
G1 X230.479 Y149.98 E3.88091
G1 X230.271 Y150.47 E3.90272
G1 X229.993 Y150.924 E3.92453
G1 X229.448 Y151.559 E3.95882
G1 X229.063 Y151.927 E3.98064
G1 X228.627 Y152.233 E4.00246
G1 X228.151 Y152.471 E4.02427
G1 X227.889 Y152.561 E4.03562
G1 X227.696 Y152.949 E4.05338
G1 X227.39 Y153.385 E4.0752
G1 X227.023 Y153.77 E4.097
G1 X226.363 Y154.274 E4.13102
G1 X225.911 Y154.554 E4.15281
G1 X225.421 Y154.763 E4.17463
G1 X224.905 Y154.897 E4.19648
G1 X224.635 Y154.926 E4.2076
G1 X224.36 Y155.271 E4.22568
G1 X223.97 Y155.634 E4.24751
G1 X223.53 Y155.933 E4.26931
G1 X222.781 Y156.288 E4.30327
G1 X222.279 Y156.468 E4.32512
G1 X221.757 Y156.57 E4.34691
G1 X221.225 Y156.593 E4.36873
G1 X220.953 Y156.565 E4.37994
G1 X220.702 Y156.784 E4.39359
G1 X220.253 Y157.07 E4.4154
G1 X219.766 Y157.285 E4.43721
G1 X218.853 Y157.51 E4.47574
G1 X218.325 Y157.581 E4.49757
G1 X217.793 Y157.572 E4.51937
G1 X217.268 Y157.483 E4.54119
G1 X217.018 Y157.403 E4.55194
G1 X216.643 Y157.599 E4.56928
G1 X216.14 Y157.774 E4.5911
G1 X215.617 Y157.871 E4.61289
G1 X214.782 Y157.893 E4.64712
G1 X214.251 Y157.854 E4.66893
G1 X213.731 Y157.736 E4.69078
G1 X213.236 Y157.542 E4.71257
G1 X212.987 Y157.405 E4.72421
G1 X212.556 Y157.522 E4.74251
G1 X212.027 Y157.585 E4.76434
G1 X211.495 Y157.567 E4.78615
G1 X210.692 Y157.415 E4.81963
G1 X210.181 Y157.266 E4.84144
G1 X209.698 Y157.042 E4.86326
G1 X209.254 Y156.748 E4.88508
G1 X209.046 Y156.567 E4.89638
G1 X208.612 Y156.594 E4.91419
G1 X208.081 Y156.546 E4.93604
G1 X207.564 Y156.42 E4.95784
G1 X206.81 Y156.107 E4.99129
G1 X206.341 Y155.855 E5.01311
G1 X205.914 Y155.537 E5.03492
G1 X205.54 Y155.158 E5.05674
G1 X205.368 Y154.928 E5.06851
G1 X204.947 Y154.867 E5.08594
G1 X204.437 Y154.712 E5.10778
G1 X203.957 Y154.482 E5.12958
G1 X203.26 Y154 E5.16431
G0 F15000 X203.955 Y153.83
G1 F2700 X203.211 Y153.239 E5.20324
G1 X202.897 Y152.863 E5.22331
G1 X202.537 Y152.181 E5.25491
G1 X202.514 Y152.118 E5.25766
G1 X201.983 Y151.94 E5.2806
G1 X201.552 Y151.707 E5.30068
G1 X200.954 Y151.193 E5.33299
G1 X200.347 Y150.455 E5.37214
G1 X200.119 Y150.021 E5.39223
G1 X199.909 Y149.271 E5.42414
G1 X199.901 Y149.216 E5.42642
G1 X199.357 Y148.884 E5.45253
G1 X198.992 Y148.557 E5.47261
G1 X198.575 Y147.998 E5.50118
G1 X198.134 Y147.156 E5.54013
G1 X197.999 Y146.686 E5.56016
G1 X197.947 Y145.896 E5.5926
G1 X197.951 Y145.837 E5.59503
G1 X197.525 Y145.443 E5.6188
G1 X197.229 Y145.053 E5.63886
G1 X196.91 Y144.376 E5.66953
G1 X196.653 Y143.463 E5.70839
G1 X196.618 Y142.974 E5.72848
G1 X196.708 Y142.277 E5.75727
G1 X196.745 Y142.13 E5.76348
G1 X196.373 Y141.584 E5.79056
G1 X196.176 Y141.136 E5.81061
G1 X196.027 Y140.46 E5.83897
G1 X195.971 Y139.508 E5.87804
G1 X196.041 Y139.023 E5.89812
G1 X196.189 Y138.556 E5.9182
G1 X196.336 Y138.248 E5.93218
G1 X196.085 Y137.632 E5.95943
G1 X195.987 Y137.152 E5.97951
G1 X195.981 Y136.486 E6.0068
G1 X196.117 Y135.546 E6.04571
G1 X196.284 Y135.085 E6.0658
G1 X196.69 Y134.433 E6.09727
G1 X196.743 Y134.369 E6.10068
G1 X196.625 Y133.725 E6.1275
G1 X196.627 Y133.235 E6.14758
G1 X196.763 Y132.562 E6.17571
G1 X197.095 Y131.67 E6.21471
G1 X197.355 Y131.255 E6.23478
G1 X197.678 Y130.887 E6.25484
G1 X197.948 Y130.657 E6.26937
G1 X197.969 Y129.993 E6.29659
G1 X198.074 Y129.514 E6.31669
G1 X198.34 Y128.901 E6.34406
G1 X198.847 Y128.099 E6.38294
G1 X199.187 Y127.746 E6.40302
G1 X199.842 Y127.306 E6.43535
G1 X199.899 Y127.278 E6.43796
G1 X200.051 Y126.648 E6.46451
G1 X200.251 Y126.201 E6.48457
G1 X200.652 Y125.636 E6.51296
G1 X201.314 Y124.96 E6.55173
G1 X201.72 Y124.686 E6.5718
G1 X202.372 Y124.415 E6.60073
G1 X202.509 Y124.376 E6.60657
G1 X202.8 Y123.776 E6.63389
G1 X203.091 Y123.382 E6.65396
G1 X203.582 Y122.932 E6.68125
G1 X204.367 Y122.408 E6.71992
G1 X204.82 Y122.224 E6.73995
G1 X205.509 Y122.093 E6.76869
G1 X205.664 Y122.082 E6.77506
G1 X206.088 Y121.543 E6.80316
G1 X206.456 Y121.22 E6.82322
G1 X207.024 Y120.889 E6.85015
G1 X207.902 Y120.542 E6.88884
G1 X208.384 Y120.458 E6.90888
G1 X209.077 Y120.474 E6.93729
G1 X209.229 Y120.495 E6.94357
G1 X209.656 Y120.12 E6.96686
G1 X210.075 Y119.865 E6.98696
G1 X210.801 Y119.611 E7.01847
G1 X211.746 Y119.452 E7.05773
G1 X212.235 Y119.47 E7.07778
G1 X212.996 Y119.664 E7.10996
G1 X213.045 Y119.684 E7.11213
G1 X213.622 Y119.373 E7.13899
G1 X214.089 Y119.223 E7.15909
G1 X214.762 Y119.145 E7.18685
G1 X215.708 Y119.183 E7.22564
G1 X216.183 Y119.301 E7.24569
G1 X216.824 Y119.604 E7.27474
G1 X216.949 Y119.683 E7.2808
G1 X217.586 Y119.497 E7.30799
G1 X218.073 Y119.449 E7.32804
G1 X218.746 Y119.515 E7.35575
G1 X219.662 Y119.75 E7.3945
G1 X220.102 Y119.965 E7.41456
G1 X220.657 Y120.389 E7.44318
G1 X220.765 Y120.494 E7.44935
G1 X221.419 Y120.444 E7.47623
G1 X221.906 Y120.497 E7.4963
G1 X222.553 Y120.699 E7.52407
G1 X223.397 Y121.116 E7.56264
G1 X223.784 Y121.417 E7.58273
G1 X224.243 Y121.951 E7.61158
G1 X224.329 Y122.079 E7.6179
G1 X224.972 Y122.165 E7.64448
G1 X225.438 Y122.317 E7.66457
G1 X226.045 Y122.66 E7.69313
G1 X226.789 Y123.251 E7.73206
G1 X227.103 Y123.627 E7.75214
G1 X227.463 Y124.309 E7.78373
G1 X227.487 Y124.374 E7.78657
G1 X228.027 Y124.556 E7.80992
G1 X228.457 Y124.791 E7.83
G1 X229.035 Y125.288 E7.86123
G1 X229.645 Y126.024 E7.9004
G1 X229.875 Y126.456 E7.92045
G1 X230.091 Y127.219 E7.95295
G1 X230.099 Y127.273 E7.95518
G1 X230.66 Y127.619 E7.98219
G1 X231.022 Y127.949 E8.00226
G1 X231.433 Y128.505 E8.03059
G1 X231.867 Y129.342 E8.06922
G1 X232.001 Y129.813 E8.08928
G1 X232.055 Y130.506 E8.11777
G1 X232.049 Y130.653 E8.12379
G1 X232.475 Y131.047 E8.14757
G1 X232.771 Y131.437 E8.16763
G1 X233.093 Y132.122 E8.19864
G1 X233.349 Y133.042 E8.23777
G1 X233.383 Y133.531 E8.25786
G1 X233.277 Y134.283 E8.28897
G1 X233.256 Y134.36 E8.29224
G1 X233.627 Y134.906 E8.31929
G1 X233.824 Y135.354 E8.33934
G1 X233.973 Y136.028 E8.36763
G1 X234.029 Y136.979 E8.40666
G1 X233.959 Y137.464 E8.42674
G1 X233.693 Y138.185 E8.45823
G1 X233.664 Y138.241 E8.46081
G1 X233.915 Y138.858 E8.4881
G1 X234.013 Y139.338 E8.50817
G1 X234.019 Y140.005 E8.53551
G1 X233.883 Y140.944 E8.57438
G1 X233.716 Y141.405 E8.59447
G1 X233.309 Y142.058 E8.626
G1 X233.257 Y142.121 E8.62935
G1 X233.375 Y142.765 E8.65617
G1 X233.373 Y143.255 E8.67625
G1 X233.237 Y143.928 E8.70438
G1 X232.905 Y144.82 E8.74338
G1 X232.645 Y145.235 E8.76344
G1 X232.322 Y145.603 E8.78351
G1 X232.051 Y145.835 E8.79812
G1 X232.033 Y146.484 E8.82473
G1 X231.93 Y146.963 E8.8448
G1 X231.653 Y147.601 E8.8733
G1 X231.141 Y148.403 E8.91229
G1 X230.8 Y148.754 E8.93234
G1 X230.166 Y149.18 E8.96363
G1 X230.1 Y149.213 E8.96666
G1 X229.949 Y149.842 E8.99316
G1 X229.749 Y150.289 E9.01323
G1 X229.348 Y150.854 E9.04162
G1 X228.686 Y151.53 E9.08038
G1 X228.28 Y151.804 E9.10045
G1 X227.628 Y152.075 E9.12938
G1 X227.489 Y152.114 E9.1353
G1 X227.206 Y152.703 E9.16207
G1 X226.917 Y153.098 E9.18213
G1 X226.413 Y153.562 E9.2102
G1 X225.624 Y154.087 E9.24903
G1 X225.17 Y154.271 E9.2691
G1 X224.395 Y154.405 E9.30132
G1 X224.336 Y154.407 E9.30374
G1 X223.933 Y154.929 E9.33076
G1 X223.567 Y155.255 E9.35085
G1 X222.978 Y155.602 E9.37886
G1 X222.096 Y155.951 E9.41772
G1 X221.614 Y156.036 E9.43778
G1 X220.82 Y156.004 E9.47033
G1 X220.77 Y155.995 E9.47242
G1 X220.344 Y156.37 E9.49567
G1 X219.925 Y156.625 E9.51577
G1 X219.199 Y156.879 E9.54728
G1 X218.254 Y157.038 E9.58655
G1 X217.765 Y157.02 E9.6066
G1 X217.004 Y156.826 E9.63877
G1 X216.956 Y156.807 E9.64089
G1 X216.39 Y157.114 E9.66727
G1 X215.924 Y157.265 E9.68734
G1 X215.239 Y157.346 E9.71561
G1 X214.292 Y157.308 E9.75444
G1 X213.817 Y157.19 E9.77449
G1 X213.176 Y156.887 E9.80354
G1 X213.051 Y156.808 E9.8096
G1 X212.413 Y156.994 E9.83683
G1 X211.926 Y157.042 E9.85688
G1 X211.253 Y156.976 E9.88459
G1 X210.337 Y156.741 E9.92334
G1 X209.897 Y156.526 E9.9434
G1 X209.335 Y156.095 E9.97242
G1 X209.235 Y155.997 E9.97816
G1 X208.58 Y156.047 E10.00508
G1 X208.093 Y155.994 E10.02515
G1 X207.447 Y155.791 E10.05289
G1 X206.601 Y155.373 E10.09156
G1 X206.215 Y155.073 E10.11159
G1 X205.749 Y154.53 E10.14091
G1 X205.67 Y154.411 E10.14676
G1 X205.028 Y154.325 E10.1733
G1 X204.562 Y154.173 E10.19338
G1 X203.955 Y153.83 E10.22195
G0 F15000 X203.903 Y153.117
G1 F2700 X203.57 Y152.825 E10.2401
G1 X203.295 Y152.478 E10.25824
G1 X203.049 Y151.99 E10.28063
G1 X202.934 Y151.647 E10.29545
G1 X202.582 Y151.572 E10.3102
G1 X202.164 Y151.423 E10.32838
G1 X201.781 Y151.202 E10.3465
G1 X201.361 Y150.829 E10.36951
G1 X200.786 Y150.126 E10.40673
G1 X200.59 Y149.729 E10.42487
G1 X200.45 Y149.193 E10.44757
G1 X200.412 Y148.847 E10.46183
G1 X200.025 Y148.665 E10.47935
G1 X199.654 Y148.423 E10.4975
G1 X199.332 Y148.119 E10.51564
G1 X198.817 Y147.325 E10.55442
G1 X198.63 Y146.923 E10.57259
G1 X198.519 Y146.495 E10.59071
G1 X198.491 Y145.932 E10.6138
G1 X198.526 Y145.578 E10.62838
G1 X198.222 Y145.355 E10.64382
G1 X197.904 Y145.047 E10.66196
G1 X197.646 Y144.687 E10.68011
G1 X197.429 Y144.206 E10.70173
G1 X197.187 Y143.337 E10.73869
G1 X197.166 Y142.895 E10.75682
G1 X197.289 Y142.201 E10.7857
G1 X197.36 Y141.997 E10.79455
G1 X197.072 Y141.661 E10.81269
G1 X196.833 Y141.287 E10.83087
G1 X196.666 Y140.877 E10.84901
G1 X196.524 Y139.942 E10.88776
G1 X196.519 Y139.499 E10.90591
G1 X196.593 Y139.063 E10.92403
G1 X196.804 Y138.53 E10.94752
G1 X196.966 Y138.248 E10.96085
G1 X196.752 Y137.853 E10.97925
G1 X196.598 Y137.438 E10.99739
G1 X196.52 Y137.002 E11.01554
G1 X196.571 Y136.083 E11.05325
G1 X196.655 Y135.648 E11.0714
G1 X196.817 Y135.236 E11.08954
G1 X197.112 Y134.778 E11.11186
G1 X197.359 Y134.497 E11.12719
G1 X197.233 Y134.078 E11.14512
G1 X197.167 Y133.64 E11.16327
G1 X197.18 Y133.197 E11.18143
G1 X197.425 Y132.291 E11.21989
G1 X197.6 Y131.883 E11.23808
G1 X197.844 Y131.514 E11.2562
G1 X198.251 Y131.112 E11.27964
G1 X198.525 Y130.912 E11.29354
G1 X198.489 Y130.466 E11.31187
G1 X198.516 Y130.024 E11.33002
G1 X198.623 Y129.594 E11.34817
G1 X199.043 Y128.774 E11.38592
G1 X199.297 Y128.411 E11.40408
G1 X199.612 Y128.1 E11.42221
G1 X200.084 Y127.795 E11.44524
G1 X200.41 Y127.647 E11.45991
