;FLAVOR:Marlin
;TIME:3674
;Filament used: 9.40163m
;Layer height: 0.3
;MINX:167.69
;MINY:74.256
;MINZ:0.2
;MAXX:212.724
;MAXY:341.951
;MAXZ:32
;Generated with Cura_SteamEngine 4.8.0
M82 ;absolute extrusion mode
;ELEGOO NEPTUNE 4 MAX
M220 S100 ;Set the feed speed to 100%
M221 S100 ;Set the flow rate to 100%
M104 S140
M190 S60
G90
G28 ;home
G1 Z10 F300
G1 X165 Y0.5 F6000
G1 Z0 F300
M109 S210
G92 E0 ;Reset Extruder
G1 X165 Y0.5 Z0.4 F300 ;Move to start position
G1 X265 E30 F400 ;Draw the first line
G1 Z0.6 F120.0 ;Move to side a little
G1 X260 F3000
G92 E0 ;Reset Extruder
G92 E0
G92 E0
G1 F2700 E-0.8
;LAYER_COUNT:107
;LAYER:0
M107
M204 S500
G1 F600 Z0.6
G0 F15000 X169.452 Y168.181 Z0.6
;TYPE:SKIRT
G1 F600 Z0.2
G1 F2700 E0
G1 X168.948 Y167.763 E0.02683
G1 X168.729 Y167.544 E0.03952
G1 X168.382 Y167.14 E0.06134
G1 X168.099 Y166.689 E0.08316
G1 X167.887 Y166.2 E0.10499
G1 X167.75 Y165.686 E0.12679
G1 X167.69 Y165.034 E0.15362
G1 X167.691 Y96.123 E2.97715
G1 X167.694 Y95.974 E2.98325
G1 X167.716 Y95.451 E3.0047
G1 X167.729 Y95.264 E3.01238
G1 X167.779 Y94.738 E3.03403
G1 X167.801 Y94.553 E3.04166
G1 X167.877 Y94.041 E3.06287
G1 X167.91 Y93.857 E3.07053
G1 X168.014 Y93.344 E3.09198
G1 X168.052 Y93.176 E3.09904
G1 X168.183 Y92.66 E3.12085
G1 X168.237 Y92.469 E3.12898
G1 X168.395 Y91.966 E3.15059
G1 X168.449 Y91.808 E3.15743
G1 X168.625 Y91.328 E3.17837
G1 X168.699 Y91.143 E3.18654
G1 X168.905 Y90.666 E3.20783
G1 X168.978 Y90.508 E3.21496
G1 X169.205 Y90.046 E3.23605
G1 X169.291 Y89.881 E3.24367
G1 X169.554 Y89.41 E3.26578
G1 X169.645 Y89.257 E3.27307
G1 X169.921 Y88.816 E3.29439
G1 X170.029 Y88.653 E3.3024
G1 X170.324 Y88.235 E3.32336
G1 X170.424 Y88.1 E3.33025
G1 X170.748 Y87.684 E3.35185
G1 X170.829 Y87.584 E3.35712
G1 X173.739 Y84.117 E3.54259
G1 X174.148 Y83.568 E3.57064
G1 X174.502 Y82.973 E3.599
G1 X174.742 Y82.526 E3.61979
G1 X174.818 Y82.393 E3.62607
G1 X175.091 Y81.934 E3.64795
G1 X175.163 Y81.817 E3.65358
G1 X175.46 Y81.359 E3.67595
G1 X175.558 Y81.216 E3.68305
G1 X175.88 Y80.769 E3.70562
G1 X175.972 Y80.647 E3.71188
G1 X176.324 Y80.2 E3.73519
G1 X176.419 Y80.084 E3.74134
G1 X176.765 Y79.681 E3.7631
G1 X176.863 Y79.572 E3.76911
G1 X177.238 Y79.17 E3.79163
G1 X177.356 Y79.049 E3.79856
G1 X177.745 Y78.67 E3.82081
G1 X177.849 Y78.573 E3.82664
G1 X178.265 Y78.199 E3.84956
G1 X178.385 Y78.096 E3.85604
G1 X178.8 Y77.755 E3.87805
G1 X178.922 Y77.659 E3.88441
G1 X179.364 Y77.327 E3.90706
G1 X179.492 Y77.235 E3.91352
G1 X179.944 Y76.926 E3.93595
G1 X180.074 Y76.841 E3.94231
G1 X180.536 Y76.554 E3.9646
G1 X180.665 Y76.478 E3.97073
G1 X181.154 Y76.202 E3.99374
G1 X181.293 Y76.128 E4.00019
G1 X181.776 Y75.883 E4.02238
G1 X181.915 Y75.816 E4.02871
G1 X182.42 Y75.587 E4.05143
G1 X182.558 Y75.528 E4.05758
G1 X183.066 Y75.323 E4.08002
G1 X183.218 Y75.265 E4.08669
G1 X183.722 Y75.088 E4.10857
G1 X184.393 Y74.88 E4.13736
G1 X184.549 Y74.835 E4.14401
G1 X185.065 Y74.702 E4.16584
G1 X185.221 Y74.666 E4.1724
G1 X185.768 Y74.551 E4.19531
G1 X185.909 Y74.524 E4.20119
G1 X186.444 Y74.434 E4.22342
G1 X186.604 Y74.411 E4.23004
G1 X187.154 Y74.344 E4.25274
G1 X187.298 Y74.329 E4.25867
G1 X187.831 Y74.286 E4.28058
G1 X187.997 Y74.277 E4.2874
G1 X188.563 Y74.258 E4.3106
G1 X188.702 Y74.256 E4.3163
G1 X189.238 Y74.259 E4.33826
G1 X189.41 Y74.264 E4.34531
G1 X189.965 Y74.294 E4.36808
G1 X190.109 Y74.305 E4.374
G1 X190.656 Y74.357 E4.39651
G1 X190.813 Y74.375 E4.40299
G1 X191.355 Y74.451 E4.42541
G1 X191.504 Y74.476 E4.4316
G1 X192.037 Y74.574 E4.45381
G1 X192.187 Y74.605 E4.46008
G1 X192.711 Y74.725 E4.48211
G1 X192.867 Y74.764 E4.4887
G1 X193.401 Y74.912 E4.5114
G1 X193.553 Y74.958 E4.51791
G1 X194.09 Y75.133 E4.54105
G1 X194.225 Y75.18 E4.54691
G1 X194.737 Y75.37 E4.56929
G1 X194.893 Y75.432 E4.57616
G1 X195.386 Y75.642 E4.59812
G1 X195.511 Y75.698 E4.60373
G1 X196.017 Y75.937 E4.62666
G1 X196.169 Y76.013 E4.63362
G1 X196.648 Y76.268 E4.65586
G1 X196.775 Y76.339 E4.66182
G1 X197.256 Y76.621 E4.68467
G1 X197.388 Y76.702 E4.69101
G1 X197.849 Y77 E4.7135
G1 X197.98 Y77.089 E4.71999
G1 X198.417 Y77.4 E4.74197
G1 X198.542 Y77.494 E4.74838
G1 X198.974 Y77.831 E4.77083
G1 X199.094 Y77.929 E4.77718
G1 X199.509 Y78.283 E4.79953
G1 X199.619 Y78.381 E4.80556
G1 X200.032 Y78.764 E4.82864
G1 X200.154 Y78.882 E4.83559
G1 X200.539 Y79.275 E4.85814
G1 X200.63 Y79.372 E4.86359
G1 X200.99 Y79.768 E4.88551
G1 X201.099 Y79.894 E4.89234
G1 X201.447 Y80.315 E4.91472
G1 X201.538 Y80.429 E4.9207
G1 X201.876 Y80.874 E4.94359
G1 X201.976 Y81.013 E4.95061
G1 X202.304 Y81.491 E4.97436
G1 X202.648 Y82.033 E5.00067
G1 X202.728 Y82.166 E5.00703
G1 X203.045 Y82.725 E5.03336
G1 X203.436 Y83.423 E5.06614
G1 X203.821 Y83.971 E5.09358
G1 X203.947 Y84.125 E5.10173
G1 X206.852 Y87.587 E5.2869
G1 X206.934 Y87.689 E5.29227
G1 X207.26 Y88.108 E5.31402
G1 X207.366 Y88.251 E5.32131
G1 X207.658 Y88.668 E5.34217
G1 X207.758 Y88.819 E5.34959
G1 X208.042 Y89.272 E5.3715
G1 X208.135 Y89.429 E5.37898
G1 X208.383 Y89.874 E5.39985
G1 X208.468 Y90.036 E5.40734
G1 X208.701 Y90.51 E5.42899
G1 X208.778 Y90.678 E5.43656
G1 X208.985 Y91.161 E5.45809
G1 X209.051 Y91.327 E5.46541
G1 X209.228 Y91.805 E5.48629
G1 X209.29 Y91.986 E5.49413
G1 X209.446 Y92.489 E5.51571
G1 X209.496 Y92.668 E5.52333
G1 X209.627 Y93.185 E5.54518
G1 X209.665 Y93.353 E5.55224
G1 X209.768 Y93.862 E5.57351
G1 X209.802 Y94.055 E5.58154
G1 X209.876 Y94.564 E5.60262
G1 X209.896 Y94.731 E5.60951
G1 X209.946 Y95.245 E5.63067
G1 X209.96 Y95.435 E5.63848
G1 X209.983 Y95.964 E5.66017
G1 X209.988 Y96.249 E5.67185
G1 X209.988 Y165.034 E8.49022
G1 X209.948 Y165.565 E8.51204
G1 X209.829 Y166.084 E8.53385
G1 X209.634 Y166.579 E8.55565
G1 X209.367 Y167.04 E8.57748
G1 X208.949 Y167.544 E8.60431
G1 X208.73 Y167.763 E8.617
G1 X208.326 Y168.11 E8.63882
G1 X207.875 Y168.393 E8.66064
G1 X207.386 Y168.605 E8.68248
G1 X206.872 Y168.742 E8.70427
G1 X206.22 Y168.802 E8.7311
G1 X171.458 Y168.802 E10.15542
G1 X170.927 Y168.762 E10.17724
G1 X170.408 Y168.643 E10.19906
G1 X169.913 Y168.448 E10.22086
G1 X169.452 Y168.181 E10.24269
G0 F15000 X169.633 Y167.638
G1 F2700 X169.116 Y167.157 E10.27162
G1 X168.799 Y166.784 E10.29168
G1 X168.547 Y166.364 E10.31174
G1 X168.366 Y165.909 E10.33181
G1 X168.262 Y165.43 E10.35189
G1 X168.236 Y165.034 E10.36815
G1 X168.237 Y96.123 E13.19168
G1 X168.24 Y95.997 E13.19685
G1 X168.262 Y95.474 E13.21829
G1 X168.272 Y95.316 E13.22478
G1 X168.322 Y94.79 E13.24643
G1 X168.342 Y94.633 E13.25292
G1 X168.418 Y94.121 E13.27412
G1 X168.445 Y93.965 E13.28061
G1 X168.549 Y93.452 E13.30206
G1 X168.581 Y93.31 E13.30802
G1 X168.712 Y92.794 E13.32984
G1 X168.758 Y92.633 E13.3367
G1 X168.916 Y92.13 E13.3583
G1 X168.962 Y91.996 E13.3641
G1 X169.138 Y91.516 E13.38505
G1 X169.2 Y91.359 E13.39197
G1 X169.406 Y90.882 E13.41326
G1 X169.468 Y90.749 E13.41927
G1 X169.695 Y90.287 E13.44036
G1 X169.768 Y90.147 E13.44683
G1 X170.031 Y89.676 E13.46893
G1 X170.107 Y89.547 E13.47507
G1 X170.383 Y89.106 E13.49638
G1 X170.475 Y88.967 E13.50321
G1 X170.77 Y88.549 E13.52418
G1 X170.855 Y88.436 E13.52997
G1 X171.179 Y88.02 E13.55157
G1 X171.248 Y87.935 E13.55606
G1 X174.162 Y84.463 E13.74179
G1 X174.605 Y83.866 E13.77225
G1 X174.999 Y83.202 E13.80388
G1 X175.287 Y82.672 E13.8286
G1 X175.56 Y82.213 E13.85048
G1 X175.621 Y82.114 E13.85524
G1 X175.918 Y81.656 E13.87761
G1 X176.001 Y81.535 E13.88362
G1 X176.323 Y81.088 E13.90619
G1 X176.401 Y80.985 E13.91149
G1 X176.753 Y80.538 E13.9348
G1 X176.834 Y80.44 E13.94001
G1 X177.18 Y80.037 E13.96177
G1 X177.262 Y79.945 E13.96682
G1 X177.637 Y79.543 E13.98935
G1 X177.737 Y79.44 E13.99523
G1 X178.126 Y79.061 E14.01748
G1 X178.214 Y78.979 E14.02241
G1 X178.63 Y78.605 E14.04533
G1 X178.732 Y78.518 E14.05082
G1 X179.147 Y78.177 E14.07283
G1 X179.249 Y78.096 E14.07817
G1 X179.691 Y77.764 E14.10082
G1 X179.8 Y77.686 E14.10631
G1 X180.252 Y77.377 E14.12875
G1 X180.362 Y77.305 E14.13413
G1 X180.824 Y77.018 E14.15642
G1 X180.933 Y76.954 E14.1616
G1 X181.422 Y76.678 E14.1846
G1 X181.54 Y76.615 E14.19008
G1 X182.023 Y76.37 E14.21227
G1 X182.141 Y76.313 E14.21764
G1 X182.646 Y76.084 E14.24036
G1 X182.762 Y76.034 E14.24554
G1 X183.27 Y75.829 E14.26799
G1 X183.399 Y75.781 E14.27362
G1 X184.016 Y75.566 E14.3004
G1 X184.553 Y75.401 E14.32341
G1 X184.685 Y75.364 E14.32903
G1 X185.201 Y75.231 E14.35086
G1 X185.333 Y75.2 E14.35642
G1 X185.88 Y75.085 E14.37932
G1 X186 Y75.063 E14.38432
G1 X186.535 Y74.973 E14.40655
G1 X186.67 Y74.953 E14.41214
G1 X187.22 Y74.886 E14.43484
G1 X187.342 Y74.874 E14.43987
G1 X187.875 Y74.831 E14.46178
G1 X188.015 Y74.823 E14.46752
G1 X188.581 Y74.804 E14.49073
G1 X188.699 Y74.802 E14.49556
G1 X189.235 Y74.805 E14.51752
G1 X189.38 Y74.809 E14.52347
G1 X189.935 Y74.839 E14.54624
G1 X190.057 Y74.848 E14.55125
G1 X190.604 Y74.9 E14.57377
G1 X190.737 Y74.916 E14.57926
G1 X191.279 Y74.992 E14.60168
G1 X191.405 Y75.013 E14.60692
G1 X191.938 Y75.111 E14.62912
G1 X192.065 Y75.137 E14.63443
G1 X192.589 Y75.257 E14.65646
G1 X192.721 Y75.29 E14.66203
G1 X193.255 Y75.438 E14.68474
G1 X193.383 Y75.477 E14.69022
G1 X193.92 Y75.652 E14.71336
G1 X194.035 Y75.692 E14.71835
G1 X194.547 Y75.882 E14.74073
G1 X194.679 Y75.934 E14.74654
G1 X195.172 Y76.144 E14.7685
G1 X195.278 Y76.192 E14.77326
G1 X195.784 Y76.431 E14.79619
G1 X195.912 Y76.495 E14.80206
G1 X196.391 Y76.75 E14.82429
G1 X196.499 Y76.81 E14.82935
G1 X196.98 Y77.092 E14.8522
G1 X197.091 Y77.161 E14.85755
G1 X197.552 Y77.459 E14.88005
G1 X197.663 Y77.534 E14.88553
G1 X198.1 Y77.845 E14.90751
G1 X198.206 Y77.924 E14.91293
G1 X198.638 Y78.261 E14.93538
G1 X198.74 Y78.344 E14.94077
G1 X199.155 Y78.698 E14.96312
G1 X199.248 Y78.781 E14.96822
G1 X199.661 Y79.164 E14.9913
G1 X199.764 Y79.265 E14.99721
G1 X200.226 Y79.739 E15.02433
G1 X200.586 Y80.135 E15.04626
G1 X200.679 Y80.242 E15.05207
G1 X201.027 Y80.663 E15.07445
G1 X201.103 Y80.76 E15.0795
G1 X201.441 Y81.205 E15.1024
G1 X201.526 Y81.322 E15.10832
G1 X201.854 Y81.8 E15.13207
G1 X202.186 Y82.323 E15.15746
G1 X202.254 Y82.436 E15.16286
G1 X202.529 Y82.919 E15.18563
G1 X202.794 Y83.411 E15.20853
G1 X203.165 Y84.001 E15.23709
G1 X203.552 Y84.504 E15.26309
G1 X206.433 Y87.938 E15.44675
G1 X206.503 Y88.024 E15.4513
G1 X206.829 Y88.443 E15.47305
G1 X206.919 Y88.564 E15.47923
G1 X207.211 Y88.981 E15.50009
G1 X207.295 Y89.109 E15.50636
G1 X207.579 Y89.562 E15.52827
G1 X207.658 Y89.695 E15.5346
G1 X207.906 Y90.14 E15.55548
G1 X207.978 Y90.277 E15.56182
G1 X208.211 Y90.751 E15.58346
G1 X208.276 Y90.893 E15.58986
G1 X208.483 Y91.376 E15.61139
G1 X208.539 Y91.516 E15.61757
G1 X208.716 Y91.994 E15.63845
G1 X208.768 Y92.147 E15.64508
G1 X208.924 Y92.65 E15.66665
G1 X208.967 Y92.802 E15.67313
G1 X209.098 Y93.319 E15.69498
G1 X209.13 Y93.461 E15.70094
G1 X209.233 Y93.97 E15.72222
G1 X209.262 Y94.134 E15.72904
G1 X209.336 Y94.643 E15.75012
G1 X209.353 Y94.784 E15.75594
G1 X209.403 Y95.298 E15.7771
G1 X209.414 Y95.459 E15.78371
G1 X209.44 Y96.083 E15.8093
G1 X209.442 Y96.255 E15.81635
G1 X209.442 Y165.034 E18.63447
G1 X209.402 Y165.522 E18.65453
G1 X209.283 Y165.997 E18.6746
G1 X209.089 Y166.447 E18.69467
G1 X208.824 Y166.859 E18.71475
G1 X208.343 Y167.376 E18.74368
G1 X207.97 Y167.693 E18.76374
G1 X207.55 Y167.945 E18.78381
G1 X207.095 Y168.126 E18.80387
G1 X206.616 Y168.23 E18.82395
G1 X206.22 Y168.256 E18.84021
G1 X171.458 Y168.256 E20.26454
G1 X170.97 Y168.216 E20.2846
G1 X170.495 Y168.097 E20.30466
G1 X170.045 Y167.903 E20.32474
G1 X169.633 Y167.638 E20.34481
G0 F15000 X170.192 Y167.358
G1 F2700 X169.721 Y166.99 E20.3693
G1 X169.218 Y166.431 E20.40012
G1 X169 Y166.046 E20.41824
G1 X168.855 Y165.627 E20.43641
G1 X168.782 Y165.034 E20.46089
G1 X168.783 Y96.123 E23.28442
G1 X168.785 Y96.02 E23.28864
G1 X168.807 Y95.497 E23.31009
G1 X168.816 Y95.367 E23.31543
G1 X168.866 Y94.841 E23.33708
G1 X168.882 Y94.713 E23.34236
G1 X168.958 Y94.201 E23.36357
G1 X168.98 Y94.074 E23.36885
G1 X169.084 Y93.561 E23.3903
G1 X169.111 Y93.444 E23.39522
G1 X169.242 Y92.928 E23.41703
G1 X169.279 Y92.797 E23.42261
G1 X169.437 Y92.294 E23.44421
G1 X169.474 Y92.184 E23.44897
G1 X169.65 Y91.704 E23.46992
G1 X169.701 Y91.576 E23.47556
G1 X169.907 Y91.099 E23.49685
G1 X169.958 Y90.989 E23.50182
G1 X170.185 Y90.527 E23.52291
G1 X170.245 Y90.413 E23.52819
G1 X170.508 Y89.942 E23.55029
G1 X170.57 Y89.837 E23.55529
G1 X170.846 Y89.396 E23.57661
G1 X170.922 Y89.282 E23.58222
G1 X171.217 Y88.864 E23.60318
G1 X171.286 Y88.771 E23.60793
G1 X171.61 Y88.355 E23.62953
G1 X171.666 Y88.286 E23.63317
G1 X174.584 Y84.809 E23.81916
G1 X175.062 Y84.165 E23.85202
G1 X175.475 Y83.47 E23.88515
G1 X175.756 Y82.951 E23.90933
G1 X176.029 Y82.492 E23.93121
G1 X176.377 Y81.953 E23.9575
G1 X176.444 Y81.854 E23.9624
G1 X176.766 Y81.407 E23.98497
G1 X176.83 Y81.323 E23.9893
G1 X177.182 Y80.876 E24.01261
G1 X177.248 Y80.795 E24.01689
G1 X177.594 Y80.392 E24.03865
G1 X177.661 Y80.317 E24.04277
G1 X178.036 Y79.915 E24.0653
G1 X178.118 Y79.831 E24.07011
G1 X178.507 Y79.452 E24.09236
G1 X178.579 Y79.385 E24.09639
G1 X178.995 Y79.011 E24.11931
G1 X179.078 Y78.94 E24.12379
G1 X179.577 Y78.532 E24.1502
G1 X180.019 Y78.2 E24.17285
G1 X180.108 Y78.137 E24.17731
G1 X180.56 Y77.828 E24.19975
G1 X180.65 Y77.769 E24.20416
G1 X181.112 Y77.482 E24.22644
G1 X181.201 Y77.429 E24.23069
G1 X181.69 Y77.153 E24.25369
G1 X182.27 Y76.857 E24.28038
G1 X182.366 Y76.81 E24.28475
G1 X182.871 Y76.581 E24.30747
G1 X183.475 Y76.336 E24.33418
G1 X183.58 Y76.296 E24.33878
G1 X184.176 Y76.088 E24.36465
G1 X184.713 Y75.923 E24.38767
G1 X184.822 Y75.893 E24.3923
G1 X185.338 Y75.76 E24.41413
G1 X185.445 Y75.735 E24.41864
G1 X186.09 Y75.601 E24.44563
G1 X186.625 Y75.511 E24.46786
G1 X186.736 Y75.495 E24.47245
G1 X187.286 Y75.428 E24.49515
G1 X187.385 Y75.418 E24.49923
G1 X187.918 Y75.375 E24.52114
G1 X188.034 Y75.368 E24.5259
G1 X188.6 Y75.349 E24.54911
G1 X189.232 Y75.351 E24.575
G1 X189.351 Y75.355 E24.57988
G1 X190.006 Y75.392 E24.60676
G1 X190.553 Y75.444 E24.62927
G1 X190.661 Y75.457 E24.63373
G1 X191.203 Y75.533 E24.65616
G1 X191.306 Y75.55 E24.66043
G1 X191.839 Y75.648 E24.68264
G1 X191.943 Y75.669 E24.68699
G1 X192.467 Y75.789 E24.70901
G1 X192.575 Y75.816 E24.71357
G1 X193.109 Y75.964 E24.73628
G1 X193.214 Y75.996 E24.74078
G1 X193.845 Y76.203 E24.76799
G1 X194.357 Y76.393 E24.79036
G1 X194.465 Y76.437 E24.79514
G1 X195.044 Y76.685 E24.82095
G1 X195.55 Y76.924 E24.84388
G1 X195.656 Y76.977 E24.84873
G1 X196.135 Y77.232 E24.87097
G1 X196.223 Y77.281 E24.87509
G1 X196.704 Y77.563 E24.89794
G1 X197.256 Y77.918 E24.92483
G1 X197.347 Y77.979 E24.92932
G1 X197.784 Y78.29 E24.9513
G1 X198.302 Y78.692 E24.97816
G1 X198.386 Y78.76 E24.98259
G1 X198.877 Y79.181 E25.00909
G1 X199.29 Y79.564 E25.03217
G1 X199.374 Y79.647 E25.03701
G1 X199.822 Y80.106 E25.06329
G1 X200.182 Y80.502 E25.08522
G1 X200.258 Y80.59 E25.08998
G1 X200.606 Y81.011 E25.11236
G1 X200.669 Y81.09 E25.1165
G1 X201.007 Y81.535 E25.1394
G1 X201.076 Y81.631 E25.14424
G1 X201.404 Y82.109 E25.168
G1 X201.724 Y82.614 E25.19249
G1 X201.779 Y82.706 E25.19688
G1 X202.083 Y83.242 E25.22213
G1 X202.516 Y84.01 E25.25826
G1 X202.959 Y84.641 E25.28985
G1 X203.13 Y84.85 E25.30091
G1 X206.072 Y88.359 E25.48853
G1 X206.398 Y88.778 E25.51029
G1 X206.472 Y88.878 E25.51538
G1 X206.764 Y89.295 E25.53624
G1 X206.833 Y89.399 E25.54136
G1 X207.117 Y89.852 E25.56326
G1 X207.181 Y89.961 E25.56844
G1 X207.429 Y90.406 E25.58931
G1 X207.488 Y90.518 E25.5945
G1 X207.721 Y90.992 E25.61614
G1 X207.774 Y91.108 E25.62137
G1 X207.981 Y91.591 E25.6429
G1 X208.027 Y91.706 E25.64797
G1 X208.204 Y92.184 E25.66886
G1 X208.247 Y92.309 E25.67428
G1 X208.403 Y92.812 E25.69585
G1 X208.438 Y92.937 E25.70117
G1 X208.569 Y93.454 E25.72303
G1 X208.595 Y93.57 E25.7279
G1 X208.698 Y94.079 E25.74917
G1 X208.721 Y94.213 E25.75475
G1 X208.795 Y94.722 E25.77582
G1 X208.809 Y94.837 E25.78057
G1 X208.859 Y95.351 E25.80173
G1 X208.869 Y95.482 E25.80711
G1 X208.894 Y96.089 E25.832
G1 X208.896 Y96.261 E25.83905
G1 X208.896 Y165.034 E28.65693
G1 X208.856 Y165.475 E28.67507
G1 X208.738 Y165.902 E28.69322
G1 X208.544 Y166.3 E28.71136
G1 X208.176 Y166.771 E28.73585
G1 X207.617 Y167.274 E28.76666
